(1001)
(T1  D=1. CR=0. - FLAT END MILL)
G21
G40
G49
G80
G90

(1 2)
M5
T1 M6
S16000 M3
G54
G0 B1.476 C197.705
G17
G0 X123.833 Y-21.03 Z14.981
Z0.974
G94 G1 X123.848 Y-20.984 Z-0.918 F100.
X123.861 Y-20.985 Z-0.968
X123.896 Y-20.992 Z-1.004
X123.945 Y-21.003 Z-1.018
X123.992 Y-21.013
G93 X125.287 Y-16.839 Z-1.013 B1.243 C193.991 F11.62
X126.833 Y-9.408 Z-1.001 B0.454 C187.881 F6.86
X126.913 Y-8.958 Z-1. B0. F109.48
G94 X126.967 Y-8.946 F100.
G93 X114.259 Y38.807 B0.12 C142.167 F1.
X115.26 Y37.517 Z-1.008 B0.942 C142.89 F35.81
X115.721 Y36.924 Z-1.018 B1.436 C143.115 F76.36
X115.288 Y37.532 Z-1.008 B0.942 C142.89 F76.62
X114.517 Y38.578 Z-1.002 B0.448 C142.167 F44.36
X114.254 Y38.943 Z-1. B0. F111.25
X93.079 Y56.54 B0.131 C117.107 F1.8
X95.603 Y55.193 Z-1.008 B0.955 C118.931 F19.68
X96.602 Y54.637 Z-1.019 B1.452 C119.508 F50.82
X95.62 Y55.217 Z-1.008 B0.955 C118.931 F50.9
X93.406 Y56.438 Z-1.002 B0.459 C117.107 F21.51
X93.003 Y56.661 Z-1. B0. F108.59
X68.55 Y63.512 B0.139 C94.003 F1.95
X72.196 Y63.165 Z-1.009 B0.955 C96.554 F15.02
X73.595 Y62.991 Z-1.019 B1.445 C97.377 F40.52
G94 X73.609 Y63.036 Z-1.02 F100.
G93 X69.211 Y63.576 Z-1.015 B1.258 C93.575 F11.41
X64.215 Y63.811 Z-1.006 B0.8 C89.501 F10.37
X63.404 Y63.833 Z-0.999 B0. F61.96
G94 X63.354 Y63.904 Z-1. F100.
G93 X2.465 Y17.252 B0.189 C15.37 F0.63
X3.223 Y19.889 Z-1.008 B0.996 C17.1 F20.58
X3.557 Y21.003 Z-1.018 B1.476 C17.705 F49.9
X3.171 Y19.911 Z-1.008 B0.996 C17.1 F50.02
X2.448 Y17.614 Z-1.002 B0.516 C15.37 F22.62
X2.282 Y17.12 Z-1. B0. F96.23
X2.615 Y-17.893 B0.188 C-16.678 F1.41
X2.272 Y-16.775 Z-1.009 B0.984 C-16.347 F48.75
X2.092 Y-16.199 Z-1.019 B1.452 C-16.23 F91.55
X2.244 Y-16.78 Z-1.009 B0.984 C-16.347 F91.78
X2.464 Y-17.589 Z-1.002 B0.516 C-16.678 F69.5
X2.598 Y-18.089 Z-1. B0. F96.57
X12.926 Y-38.411 Z-1.001 B0.185 C-37.444 F2.18
X12.881 Y-38.388 Z-1.009 B0.979 C-38.121 F86.56
X12.74 Y-38.24 Z-1.019 B1.445 C-38.361 F133.98
X12.857 Y-38.404 Z-1.009 B0.979 C-38.121 F134.49
X12.678 Y-38.183 Z-1.003 B0.513 C-37.444 F84.68
X12.979 Y-38.602 Z-1. B0. F97.1
X29.958 Y-54.016 Z-1.001 B0.182 C-58.33 F2.16
X30.78 Y-54.544 Z-1.009 B0.981 C-59.93 F33.85
X30.897 Y-54.643 Z-1.019 B1.452 C-60.492 F105.48
X30.764 Y-54.573 Z-1.009 B0.981 C-59.93 F105.77
X29.646 Y-53.901 Z-1.003 B0.51 C-58.33 F31.52
X30.075 Y-54.186 Z-1. B0. F97.4
G94 X30.063 Y-54.239 F100.
G93 X73.948 Y-62.893 B0.155 C-99.542 F1.1
X76.217 Y-62.499 Z-1.008 B0.954 C-102.335 F17.99
X76.783 Y-62.408 Z-1.018 B1.427 C-103.279 F57.22
X76.221 Y-62.532 Z-1.008 B0.954 C-102.335 F57.14
X73.631 Y-63.013 Z-1.002 B0.482 C-99.542 F17.17
X74.112 Y-62.948 Z-1. B0. F103.18
G94 X74.159 Y-63.024 Z-0.999 F100.
X74.177 Y-63.036
G93 X123.791 Y-21.266 Z-1. B0.393 C-161.039 F0.75
X123.893 Y-21.063 Z-1.009 B1.098 C-161.883 F70.57
X123.945 Y-21.003 Z-1.018 B1.476 C-162.295 F146.5
G94 X124.022 Y-21.059 Z-1.019 F100.
G93 X124.153 Y-20.99 Z-1.021 B1.474 C-162.426 F335.93
X125.922 Y-15.03 B1.394 C-167.959 F7.99
X127.028 Y-9.415 B1.339 C-173.059 F8.68
X127.382 Y-6.653 B1.317 C-175.541 F17.84
X127.617 Y-3.83 B1.298 C-178.067 F17.54
X127.728 Y-0.851 B1.282 C-180.725 F16.67
X125.338 Y17.006 Z-1.02 B1.243 C-196.927 F2.75
X124.211 Y20.837 B1.249 C-200.502 F12.42
X121.086 Y28.424 Z-1.021 B1.269 C-207.847 F6.05
X117.664 Y34.587 Z-1.022 B1.29 C-214.144 F7.04
X107.701 Y46.529 Z-1.021 B1.269 C-228.115 F3.18
X93.406 Y56.643 B1.271 C-243.891 F2.82
X77.34 Y62.4 Z-1.023 B1.339 C-259.334 F2.89
X64.759 Y63.806 B1.321 C-270.702 F3.91
X49.222 Y62.065 Z-1.022 B1.294 C-284.76 F3.16
X33.925 Y56.249 B1.31 C-299.53 F3.02
X26.711 Y51.866 B1.306 C-307.107 F5.87
X19.942 Y46.379 Z-1.021 B1.283 C-314.912 F5.69
X14.108 Y40.176 Z-1.02 B1.247 C-322.514 F5.83
X3.565 Y21.297 Z-1.022 B1.33 C-342.091 F2.28
X0.24 Y6.692 Z-1.02 B1.249 C-355.483 F3.31
X-0.073 Y1.667 Z-1.021 B1.248 C-360. F9.84
(REWIND: TOOL IS RETRACTING DUE TO ROTARY AXES LIMITS.)
G94 Y1.699 Z0.486 F500.
G0 C0.
X-0.073 Y1.699
Z0.486
G1 Y1.667 Z-1.021 F250.
G93 X6.228 Y-27.478 B1.242 C-27.038 F1.65
X10.361 Y-34.954 Z-1.02 B1.209 C-34.683 F5.81
X21.063 Y-47.445 B1.184 C-49.473 F3.01
X34.137 Y-56.544 Z-1.019 B1.183 C-63.808 F3.11
X48.93 Y-62.081 B1.187 C-78.036 F3.13
X64.135 Y-63.906 B1.188 C-91.791 F3.24
X79.503 Y-61.934 B1.18 C-105.703 F3.2
X93.924 Y-56.342 B1.16 C-119.581 F3.21
X112.111 Y-41.727 Z-1.017 B1.092 C-140.566 F2.12
X116.624 Y-35.804 B1.111 C-147.27 F6.65
X119.905 Y-30.374 Z-1.018 B1.147 C-153.001 F7.79
X124.441 Y-19.765 Z-1.02 B1.268 C-163.487 F4.27
X126.077 Y-13.834 Z-1.021 B1.275 C-169.013 F8.05
X127.488 Y-3.446 Z-1.02 B1.241 C-178.408 F4.73
X126.375 Y12.323 Z-1.019 B1.213 C-192.618 F3.13
X125.307 Y17.111 B1.219 C-197.004 F10.12
G94 X125.418 Y17.158 Z-1.02 F100.
G93 X124.134 Y21.348 Z-1.022 B1.224 C-200.954 F11.28
X122.399 Y25.817 Z-1.024 B1.23 C-205.286 F10.3
X120.419 Y29.973 Z-1.026 B1.237 C-209.449 F10.72
X118.48 Y33.429 Z-1.027 B1.245 C-213.025 F12.47
X116.506 Y36.503 Z-1.028 B1.255 C-216.311 F13.55
X108.967 Y45.433 Z-1.03 B1.305 C-226.855 F4.23
G94 X108.975 Y45.454 F100.
G93 X95.462 Y55.627 Z-1.031 B1.309 C-242.069 F2.92
X77.835 Y62.345 Z-1.033 B1.356 C-259.111 F2.62
X62.643 Y63.818 Z-1.032 B1.339 C-272.825 F3.24
X45.406 Y61.019 Z-1.031 B1.34 C-288.565 F2.83
X35.717 Y57.274 Z-1.034 B1.476 C-298.033 F4.72
X31.797 Y55.313 Z-1.033 B1.436 C-301.923 F11.35
X22.756 Y49.043 Z-1.032 B1.425 C-311.784 F4.5
X13.098 Y39.001 Z-1.031 B1.347 C-324.224 F3.56
X5.023 Y25.227 B1.374 C-338.6 F3.1
X1.056 Y12.518 Z-1.03 B1.326 C-350.507 F3.72
X-0.093 Y2.061 Z-1.031 B1.378 C-360. F4.69
(REWIND: TOOL IS RETRACTING DUE TO ROTARY AXES LIMITS.)
G94 Y2.097 Z0.483 F500.
G0 C0.
X-0.093 Y2.097
Z0.483
G1 Y2.061 Z-1.031 F250.
G93 X2.374 Y-17.312 Z-1.034 B1.476 C-17.705 F2.52
X2.276 Y-17.542 Z-1.035 B1.474 C-17.86 F233.96
X7.062 Y-29.59 Z-1.033 B1.383 C-29.411 F3.83
X14.877 Y-41.249 Z-1.031 B1.329 C-41.962 F3.53
X25.771 Y-51.455 B1.366 C-55.399 F3.31
X38.535 Y-58.773 Z-1.03 B1.307 C-68.556 F3.37
X56.174 Y-63.468 Z-1.031 B1.355 C-85.021 F2.71
X72.313 Y-63.329 B1.378 C-99.552 F3.06
X84.27 Y-60.549 Z-1.03 B1.326 C-110.521 F4.04
X99.855 Y-52.728 Z-1.031 B1.364 C-126.24 F2.83
X109.51 Y-44.64 Z-1.03 B1.32 C-137.504 F3.94
X116.438 Y-36.174 B1.333 C-147.334 F4.52
X119.644 Y-30.979 Z-1.031 B1.36 C-152.838 F8.09
X124.64 Y-19.475 Z-1.03 B1.319 C-164.057 F3.95
X127.598 Y-2.728 Z-1.031 B1.361 C-179.389 F2.9
X127.02 Y9.207 Z-1.03 B1.325 C-190.076 F4.15
X124.224 Y20.69 Z-1.031 B1.338 C-200.697 F4.19
X122.094 Y26.08 Z-1.032 B1.363 C-205.922 F8.52
X118.667 Y32.834 Z-1.031 B1.347 C-212.678 F6.56
X106.869 Y47.22 B1.372 C-229.437 F2.66
X98.075 Y53.974 Z-1.033 B1.436 C-239.434 F4.45
G94 X98.109 Y54.05 Z-1.034 F100.
G93 X92.028 Y57.47 Z-1.038 B1.538 C-245.801 F7.03
X81.004 Y61.608 Z-1.047 B1.808 C-256.662 F4.13
X71.493 Y63.415 Z-1.061 B2.19 C-265.728 F4.97
X70.312 Y63.538 Z-1.064 B2.254 C-266.861 F40.07
X69.208 Y63.631 Z-1.067 B2.317 C-267.923 F42.86
X68.17 Y63.7 Z-1.071 B2.382 C-268.926 F45.44
X67.19 Y63.752 Z-1.074 B2.447 C-269.875 F48.09
X66.24 Y63.791 Z-1.077 B2.515 C-270.8 F49.42
X65.301 Y63.817 Z-1.081 B2.587 C-271.717 F49.91
X63.442 Y63.833 Z-1.089 B2.745 C-273.545 F25.09
X61.62 Y63.805 Z-1.099 B2.925 C-275.358 F25.38
X59.875 Y63.736 Z-1.11 B3.127 C-277.118 F26.23
X58.24 Y63.637 Z-1.124 B3.35 C-278.796 F27.66
X56.73 Y63.518 Z-1.139 B3.595 C-280.378 F29.49
X53.159 Y63.062 Z-1.197 B4.42 C-284.342 F11.92
X47.86 Y61.935 Z-1.196 B4.404 C-289.18 F8.95
X41.601 Y59.982 Z-1.197 B4.428 C-295.082 F7.36
X35.527 Y57.371 Z-1.196 B4.404 C-300.984 F7.33
X29.801 Y54.181 Z-1.197 B4.428 C-306.885 F7.36
X24.391 Y50.383 Z-1.196 B4.404 C-312.787 F7.33
X19.439 Y46.088 Z-1.197 B4.428 C-318.689 F7.36
X14.919 Y41.264 Z-1.196 B4.404 C-324.59 F7.33
X10.951 Y36.048 Z-1.198 B4.428 C-330.492 F7.36
X7.887 Y31.093 Z-1.19 B4.309 C-335.605 F8.39
X5.197 Y25.672 Z-1.184 B4.227 C-340.96 F8.05
X3.116 Y20.326 Z-1.19 B4.31 C-346.172 F8.38
X1.588 Y15.113 Z-1.198 B4.428 C-351.148 F8.81
X0.363 Y8.613 Z-1.196 B4.404 C-357.049 F7.33
X0.004 Y5.351 Z-1.197 B4.416 C-360. F14.72
(REWIND: TOOL IS RETRACTING DUE TO ROTARY AXES LIMITS.)
G94 Y5.469 Z0.328 F500.
G0 C0.
X0.004 Y5.469
Z0.328
G1 Y5.351 Z-1.197 F250.
G93 X-0.186 Y2.079 Z-1.198 B4.428 C-2.951 F14.73
X-0.055 Y-4.534 Z-1.196 B4.404 C-8.852 F7.33
X0.743 Y-11.043 Z-1.198 B4.428 C-14.754 F7.36
X2.316 Y-17.765 Z-1.189 B4.294 C-20.818 F7.08
X4.715 Y-24.543 Z-1.183 B4.211 C-27.195 F6.77
X7.296 Y-29.996 Z-1.182 B4.193 C-32.586 F8.05
X10.351 Y-35.143 Z-1.184 B4.212 C-37.975 F8.08
X14.432 Y-40.696 Z-1.189 B4.296 C-44.221 F6.99
X18.795 Y-45.506 Z-1.199 B4.428 C-50.164 F7.37
X23.739 Y-49.898 Z-1.196 B4.404 C-56.066 F7.33
X29.061 Y-53.73 Z-1.198 B4.428 C-61.967 F7.36
X34.796 Y-57.021 Z-1.196 B4.404 C-67.869 F7.33
X40.787 Y-59.686 Z-1.198 B4.428 C-73.771 F7.36
X47.224 Y-61.761 Z-1.189 B4.297 C-79.714 F7.23
X54.119 Y-63.187 Z-1.183 B4.214 C-85.958 F6.92
X60.118 Y-63.835 Z-1.182 B4.195 C-91.345 F8.05
X66.107 Y-63.919 Z-1.183 B4.212 C-96.734 F8.08
X73.113 Y-63.26 Z-1.188 B4.295 C-103.113 F6.84
X79.615 Y-61.947 Z-1.198 B4.428 C-109.18 F7.22
X85.925 Y-59.972 Z-1.196 B4.404 C-115.082 F7.33
X91.949 Y-57.386 Z-1.197 B4.428 C-120.984 F7.36
X97.721 Y-54.164 Z-1.196 B4.404 C-126.885 F7.33
X103.089 Y-50.402 Z-1.197 B4.428 C-132.787 F7.36
X108.08 Y-46.067 Z-1.196 B4.404 C-138.689 F7.33
X112.564 Y-41.287 Z-1.197 B4.428 C-144.59 F7.36
X116.563 Y-36.024 Z-1.196 B4.404 C-150.492 F7.33
X119.975 Y-30.428 Z-1.199 B4.428 C-156.393 F7.36
X122.077 Y-26.18 Z-1.191 B4.327 C-160.548 F10.33
X122.454 Y-25.326 Z-1.19 B4.31 C-161.369 F52.36
X124.539 Y-19.814 Z-1.184 B4.227 C-166.581 F8.27
X126.119 Y-14.132 Z-1.189 B4.309 C-171.936 F8.16
X127.135 Y-8.642 Z-1.198 B4.428 C-177.049 F8.57
X127.685 Y-2.05 Z-1.196 B4.404 C-182.951 F7.33
X127.56 Y4.506 Z-1.198 B4.428 C-188.852 F7.36
X126.749 Y11.07 Z-1.196 B4.404 C-194.754 F7.33
X125.285 Y17.462 Z-1.199 B4.428 C-200.656 F7.36
X123.135 Y23.727 Z-1.189 B4.297 C-206.472 F7.38
X120.22 Y29.977 Z-1.184 B4.213 C-212.585 F7.06
X117.159 Y35.182 Z-1.182 B4.192 C-217.973 F8.05
X113.648 Y40.046 B4.208 C-223.367 F8.07
X108.831 Y45.378 Z-1.188 B4.292 C-229.878 F6.7
X103.783 Y49.882 Z-1.198 B4.428 C-236.066 F7.08
X98.415 Y53.744 Z-1.196 B4.404 C-241.967 F7.33
X92.73 Y57.01 Z-1.197 B4.428 C-247.869 F7.36
X86.688 Y59.695 Z-1.196 B4.404 C-253.77 F7.33
X85.146 Y60.264 B4.406 C-255.245 F29.42
X80.457 Y61.73 Z-1.197 B4.428 C-259.672 F9.82
X73.999 Y63.124 B4.404 C-265.574 F7.34
X67.488 Y63.843 Z-1.201 B4.428 C-271.475 F7.37
X60.871 Y63.882 Z-1.197 B4.404 C-277.377 F7.33
X54.341 Y63.25 B4.428 C-283.279 F7.36
X53.159 Y63.062 B4.42 C-284.342 F40.62
G94 X53.14 Y63.147 Z-1.198 F100.
G93 X49.495 Y62.444 Z-1.195 B4.365 C-287.634 F13.11
X47.953 Y62.077 B4.347 C-289.05 F30.58
X46.63 Y61.726 Z-1.196 B4.333 C-290.281 F35.31
X46.042 Y61.558 B4.327 C-290.833 F78.91
X45.492 Y61.393 Z-1.197 B4.322 C-291.352 F83.94
X44.963 Y61.227 B4.318 C-291.855 F86.84
X44.433 Y61.052 Z-1.198 B4.314 C-292.363 F86.05
X43.903 Y60.872 B4.31 C-292.871 F85.99
X43.38 Y60.692 Z-1.199 B4.307 C-293.374 F86.93
X42.843 Y60.505 Z-1.2 B4.304 C-293.891 F84.49
X42.276 Y60.302 B4.301 C-294.437 F79.95
X41.023 Y59.839 Z-1.202 B4.296 C-295.646 F36.07
X39.592 Y59.276 Z-1.203 B4.292 C-297.036 F31.37
X36.275 Y57.821 Z-1.205 B4.294 C-300.302 F13.33
X28.939 Y53.649 Z-1.21 B4.353 C-307.932 F5.71
X24.583 Y50.562 Z-1.216 B4.428 C-312.787 F9.
X20.516 Y47.134 Z-1.211 B4.355 C-317.484 F9.17
X16.679 Y43.308 Z-1.208 B4.313 C-322.306 F8.97
X12.913 Y38.812 Z-1.206 B4.295 C-327.541 F8.28
X9.596 Y34.031 Z-1.208 B4.313 C-332.776 F8.31
X6.935 Y29.396 Z-1.211 B4.355 C-337.598 F9.03
X4.734 Y24.721 Z-1.216 B4.428 C-342.295 F9.3
X2.678 Y19.047 Z-1.21 B4.348 C-347.626 F8.08
X1.14 Y13.09 Z-1.207 B4.307 C-353.107 F7.89
X0.237 Y7.634 Z-1.21 B4.351 C-358.097 F8.72
X0.016 Y5.551 Z-1.212 B4.381 C-360. F22.95
(REWIND: TOOL IS RETRACTING DUE TO ROTARY AXES LIMITS.)
G94 Y5.669 Z0.331 F500.
G0 C0.
X0.016 Y5.669
Z0.331
G1 Y5.551 Z-1.212 F250.
G93 X-0.191 Y2.314 Z-1.216 B4.428 C-2.951 F14.8
X-0.14 Y-3.369 Z-1.211 B4.358 C-7.975 F8.57
X0.427 Y-9.118 Z-1.209 B4.322 C-13.122 F8.41
X1.487 Y-14.703 Z-1.207 B4.303 C-18.194 F8.54
X3.024 Y-20.138 Z-1.209 B4.318 C-23.271 F8.56
X4.831 Y-24.969 Z-1.211 B4.359 C-27.923 F9.36
X6.94 Y-29.495 Z-1.215 B4.428 C-32.459 F9.62
X10.304 Y-35.192 Z-1.213 B4.404 C-38.361 F7.33
X14.197 Y-40.47 Z-1.215 B4.428 C-44.262 F7.36
X18.113 Y-44.828 Z-1.209 B4.344 C-49.432 F8.33
X22.508 Y-48.893 Z-1.206 B4.297 C-54.759 F8.12
X27.031 Y-52.379 Z-1.209 B4.346 C-59.914 F8.45
X31.659 Y-55.347 Z-1.216 B4.428 C-64.918 F8.73
X37.756 Y-58.43 Z-1.21 B4.341 C-70.96 F7.13
X44.272 Y-60.887 Z-1.207 B4.305 C-77.176 F6.97
X49.205 Y-62.256 B4.299 C-81.757 F9.47
X54.179 Y-63.221 Z-1.209 B4.32 C-86.322 F9.53
X59.417 Y-63.82 Z-1.207 B4.303 C-91.024 F9.21
X64.654 Y-63.989 Z-1.208 B4.314 C-95.733 F9.23
X70.543 Y-63.622 Z-1.21 B4.353 C-101.05 F8.18
X76.182 Y-62.759 Z-1.216 B4.428 C-106.229 F8.42
X80.76 Y-61.687 Z-1.209 B4.344 C-110.36 F10.4
X85.364 Y-60.24 Z-1.205 B4.283 C-114.63 F10.1
X91.725 Y-57.541 Z-1.208 B4.33 C-120.86 F6.99
X97.519 Y-54.333 Z-1.216 B4.428 C-126.885 F7.25
X102.345 Y-51.009 Z-1.21 B4.353 C-132.066 F8.31
X106.924 Y-47.187 Z-1.208 B4.315 C-137.381 F8.14
X110.961 Y-43.152 Z-1.211 B4.354 C-142.527 F8.46
X114.513 Y-38.928 Z-1.217 B4.428 C-147.541 F8.71
X117.759 Y-34.274 Z-1.211 B4.354 C-152.555 F8.59
X120.628 Y-29.26 Z-1.208 B4.315 C-157.701 F8.41
X121.912 Y-26.615 Z-1.209 B4.329 C-160.344 F16.44
X123.081 Y-23.896 Z-1.21 B4.353 C-163.016 F16.29
X124.98 Y-18.518 Z-1.216 B4.428 C-168.197 F8.43
X126.343 Y-13.191 Z-1.21 B4.351 C-173.05 F8.87
X127.257 Y-7.657 Z-1.207 B4.307 C-178.041 F8.66
X127.694 Y-1.593 Z-1.21 B4.348 C-183.522 F7.94
X127.574 Y4.271 Z-1.216 B4.428 C-188.852 F8.19
X127.031 Y9.379 Z-1.211 B4.359 C-193.388 F9.49
X126.061 Y14.518 Z-1.209 B4.318 C-198.04 F9.29
X124.466 Y20.159 Z-1.207 B4.297 C-203.27 F8.28
X122.382 Y25.597 B4.313 C-208.505 F8.3
X119.955 Y30.573 Z-1.21 B4.354 C-213.498 F8.72
X117.213 Y35.17 Z-1.215 B4.428 C-218.361 F8.98
X113.283 Y40.49 Z-1.213 B4.404 C-224.262 F7.33
X108.869 Y45.339 Z-1.215 B4.428 C-230.164 F7.36
X104.808 Y49.045 Z-1.21 B4.351 C-235.018 F8.87
X100.353 Y52.453 Z-1.207 B4.307 C-240.008 F8.66
X95.206 Y55.689 Z-1.21 B4.348 C-245.489 F7.94
X89.974 Y58.339 Z-1.216 B4.428 C-250.82 F8.19
X87.944 Y59.387 Z-1.211 B4.374 C-252.792 F21.59
X81.292 Y61.62 Z-1.209 B4.34 C-259.046 F6.92
X74.469 Y63.111 Z-1.212 B4.358 C-265.323 F6.92
X67.723 Y63.843 Z-1.218 B4.428 C-271.475 F7.09
X61.145 Y63.857 Z-1.213 B4.365 C-277.311 F7.39
X54.534 Y63.188 Z-1.211 B4.348 C-283.254 F7.29
X48.099 Y61.858 Z-1.213 B4.377 C-289.18 F7.34
X47.134 Y61.653 Z-1.214 B4.391 C-290.075 F48.76
X44.937 Y61.13 Z-1.216 B4.428 C-292.131 F21.25
X39.757 Y59.287 Z-1.21 B4.351 C-296.985 F8.87
X34.655 Y56.956 Z-1.207 B4.307 C-301.975 F8.66
X29.381 Y53.934 Z-1.21 B4.348 C-307.456 F7.94
X28.939 Y53.649 B4.353 C-307.932 F91.6
G94 X28.909 Y53.701 Z-1.211 F100.
G93 X26.858 Y52.328 Z-1.212 B4.336 C-310.145 F19.61
X24.759 Y50.791 Z-1.214 B4.325 C-312.496 F18.54
X22.572 Y49.03 Z-1.218 B4.321 C-315.05 F17.11
X20.517 Y47.221 Z-1.223 B4.325 C-317.55 F17.52
X18.751 Y45.543 Z-1.228 B4.336 C-319.773 F19.7
X17.15 Y43.913 Z-1.231 B4.353 C-321.852 F21.02
X14.112 Y40.385 Z-1.235 B4.404 C-326.078 F10.33
X13.111 Y39.127 Z-1.237 B4.428 C-327.541 F29.86
X10.043 Y34.787 Z-1.232 B4.362 C-332.238 F9.17
X7.307 Y30.134 Z-1.23 B4.326 C-337.045 F9.
X5.064 Y25.499 Z-1.229 B4.317 C-341.645 F9.42
X3.214 Y20.745 Z-1.23 B4.336 C-346.235 F9.47
X1.742 Y15.819 Z-1.229 B4.32 C-350.821 F9.44
X0.673 Y10.823 B4.332 C-355.41 F9.47
X0.01 Y5.719 Z-1.228 B4.315 C-360. F9.43
(REWIND: TOOL IS RETRACTING DUE TO ROTARY AXES LIMITS.)
G94 Y5.837 Z0.336 F500.
G0 C0.
X0.01 Y5.837
Z0.336
G1 Y5.719 Z-1.228 F250.
G93 X-0.006 Y5.541 B4.314 C-0.159 F272.56
X-0.247 Y0.253 B4.326 C-4.915 F9.14
X-0.027 Y-5.269 Z-1.231 B4.361 C-9.892 F8.74
X0.634 Y-10.586 Z-1.236 B4.428 C-14.754 F8.97
X1.638 Y-15.445 Z-1.235 B4.415 C-19.18 F9.78
X3.001 Y-20.179 Z-1.236 B4.428 C-23.607 F9.81
X4.741 Y-24.826 Z-1.235 B4.415 C-28.033 F9.77
X6.817 Y-29.295 Z-1.236 B4.428 C-32.459 F9.81
X9.752 Y-34.373 Z-1.23 B4.353 C-37.64 F8.31
X13.202 Y-39.242 Z-1.228 B4.315 C-42.955 F8.14
X16.906 Y-43.587 Z-1.231 B4.354 C-48.1 F8.46
X20.836 Y-47.462 Z-1.237 B4.428 C-53.115 F8.7
X24.926 Y-50.855 Z-1.232 B4.362 C-57.812 F9.17
X29.353 Y-53.943 Z-1.23 B4.326 C-62.619 F9.
X33.801 Y-56.536 Z-1.229 B4.317 C-67.219 F9.42
X38.398 Y-58.747 Z-1.23 B4.336 C-71.809 F9.47
X43.195 Y-60.595 Z-1.229 B4.32 C-76.394 F9.44
X48.092 Y-62.046 B4.332 C-80.984 F9.47
X53.305 Y-63.131 Z-1.228 B4.314 C-85.733 F9.12
X58.559 Y-63.779 B4.326 C-90.488 F9.14
X64.081 Y-63.986 Z-1.231 B4.361 C-95.465 F8.74
X69.432 Y-63.737 Z-1.236 B4.428 C-100.328 F8.97
X74.528 Y-63.074 Z-1.232 B4.359 C-104.864 F9.49
X79.643 Y-61.982 Z-1.229 B4.318 C-109.516 F9.29
X84.91 Y-60.381 Z-1.228 B4.307 C-114.434 F8.81
X89.973 Y-58.359 Z-1.23 B4.328 C-119.34 F8.86
X94.58 Y-56.064 Z-1.229 B4.314 C-123.934 F9.43
X98.959 Y-53.428 Z-1.23 B4.328 C-128.528 F9.46
X103.28 Y-50.313 Z-1.229 B4.312 C-133.282 F9.11
X107.302 Y-46.876 Z-1.23 B4.326 C-138.037 F9.14
X111.057 Y-43.085 Z-1.232 B4.362 C-142.844 F9.05
X114.389 Y-39.127 Z-1.237 B4.428 C-147.541 F9.29
X117.457 Y-34.787 Z-1.232 B4.362 C-152.238 F9.17
X120.193 Y-30.134 Z-1.23 B4.326 C-157.045 F9.
X121.808 Y-26.896 Z-1.229 B4.317 C-160.273 F13.41
X122.436 Y-25.499 C-161.645 F31.62
X124.286 Y-20.745 Z-1.23 B4.336 C-166.235 F9.47
X125.758 Y-15.819 Z-1.229 B4.32 C-170.821 F9.44
X126.827 Y-10.823 B4.332 C-175.41 F9.47
X127.506 Y-5.541 Z-1.228 B4.314 C-180.159 F9.12
X127.747 Y-0.253 B4.326 C-184.915 F9.14
X127.527 Y5.269 Z-1.231 B4.361 C-189.892 F8.74
X126.866 Y10.586 Z-1.236 B4.428 C-194.754 F8.97
X125.862 Y15.445 Z-1.235 B4.415 C-199.18 F9.78
X124.499 Y20.179 Z-1.236 B4.428 C-203.607 F9.81
X122.759 Y24.826 Z-1.235 B4.415 C-208.033 F9.77
X120.683 Y29.295 Z-1.236 B4.428 C-212.459 F9.81
X117.748 Y34.373 Z-1.23 B4.353 C-217.64 F8.31
X114.298 Y39.242 Z-1.228 B4.315 C-222.955 F8.14
X110.594 Y43.587 Z-1.231 B4.354 C-228.1 F8.46
X106.664 Y47.462 Z-1.237 B4.428 C-233.115 F8.7
X102.574 Y50.855 Z-1.232 B4.362 C-237.812 F9.17
X98.147 Y53.943 Z-1.23 B4.326 C-242.619 F9.
X94.746 Y55.999 B4.33 C-246.175 F12.19
X91.266 Y57.823 Z-1.231 B4.351 C-249.712 F12.3
X86.647 Y59.933 Z-1.234 B4.382 C-254.263 F9.53
X80.485 Y61.872 Z-1.232 B4.353 C-260.021 F7.51
X74.191 Y63.179 Z-1.233 B4.369 C-265.797 F7.52
X67.958 Y63.843 Z-1.238 B4.428 C-271.475 F7.68
X62.996 Y63.981 Z-1.237 B4.415 C-275.902 F9.77
X58.072 Y63.742 B4.428 C-280.328 F9.81
X51.548 Y62.784 Z-1.232 B4.363 C-286.174 F7.38
X45.094 Y61.144 Z-1.231 B4.345 C-292.131 F7.28
X41.263 Y59.868 Z-1.23 B4.328 C-295.729 F12.03
X37.527 Y58.359 C-299.34 F12.02
X32.92 Y56.064 Z-1.229 B4.314 C-303.934 F9.43
X30.368 Y54.586 B4.319 C-306.581 F16.41
X28.541 Y53.429 Z-1.23 B4.328 C-308.528 F22.34
X24.22 Y50.313 Z-1.229 B4.312 C-313.282 F9.11
X20.198 Y46.876 Z-1.23 B4.326 C-318.037 F9.14
X16.443 Y43.085 Z-1.232 B4.362 C-322.844 F9.05
X14.112 Y40.385 Z-1.235 B4.404 C-326.078 F13.49
G94 X14.065 Y40.429 Z-1.236 F100.
G93 X12.142 Y37.974 Z-1.264 B4.729 C-329.182 F14.61
X10.522 Y35.715 Z-1.299 B5.086 C-332.022 F16.1
X9.139 Y33.623 Z-1.341 B5.482 C-334.663 F17.47
X8.062 Y31.891 Z-1.385 B5.876 C-336.881 F20.99
X7.265 Y30.566 Z-1.427 B6.231 C-338.605 F27.16
X6.617 Y29.471 Z-1.466 B6.568 C-340.052 F32.46
X5.569 Y27.541 Z-1.554 B7.283 C-342.641 F18.23
X5.037 Y26.385 Z-1.553 B7.278 C-343.768 F37.44
X3.755 Y23.322 Z-1.552 C-346.724 F14.32
X2.639 Y20.229 Z-1.554 B7.297 C-349.672 F14.4
X1.689 Y17.035 Z-1.552 B7.278 C-352.62 F14.31
X0.906 Y13.811 C-355.576 F14.32
X0.292 Y10.582 Z-1.554 B7.297 C-358.524 F14.4
X0.04 Y8.932 Z-1.553 B7.287 C-360. F28.58
(REWIND: TOOL IS RETRACTING DUE TO ROTARY AXES LIMITS.)
G94 Y9.135 Z0.031 F500.
G0 C0.
X0.04 Y9.135
Z0.031
G1 Y8.932 Z-1.553 F250.
G93 X-0.169 Y7.281 Z-1.552 B7.278 C-1.473 F28.65
X-0.46 Y3.975 C-4.428 F14.32
X-0.584 Y0.691 Z-1.555 B7.297 C-7.376 F14.4
X-0.508 Y-3.476 Z-1.552 B7.273 C-11.061 F11.45
X-0.171 Y-7.602 Z-1.553 B7.28 C-14.755 F11.47
X0.311 Y-10.902 Z-1.55 B7.26 C-17.703 F14.31
X0.957 Y-14.159 C-20.659 F14.32
X1.759 Y-17.349 Z-1.553 B7.28 C-23.607 F14.4
X2.745 Y-20.534 Z-1.55 B7.26 C-26.556 F14.31
X3.887 Y-23.652 C-29.511 F14.32
X5.172 Y-26.679 Z-1.553 B7.28 C-32.46 F14.4
X6.635 Y-29.676 Z-1.55 B7.26 C-35.408 F14.31
X8.241 Y-32.582 C-38.364 F14.32
X9.974 Y-35.377 Z-1.553 B7.28 C-41.312 F14.4
X11.883 Y-38.111 Z-1.55 B7.26 C-44.26 F14.31
X13.918 Y-40.734 C-47.216 F14.32
X16.063 Y-43.227 Z-1.553 B7.28 C-50.164 F14.4
X18.36 Y-45.642 Z-1.554 B7.294 C-53.139 F14.24
X20.744 Y-47.908 Z-1.558 B7.327 C-56.095 F14.38
X23.189 Y-50.014 Z-1.564 B7.379 C-59.016 F14.59
X25.836 Y-52.044 Z-1.561 B7.36 C-61.965 F14.29
X28.57 Y-53.927 C-64.921 F14.31
X31.369 Y-55.655 Z-1.563 B7.379 C-67.869 F14.39
X34.303 Y-57.246 Z-1.557 B7.327 C-70.79 F14.36
X37.328 Y-58.691 Z-1.554 B7.294 C-73.746 F14.24
X40.422 Y-59.979 Z-1.553 B7.28 C-76.721 F14.2
X43.557 Y-61.112 Z-1.555 B7.294 C-79.696 F14.24
X46.702 Y-62.074 Z-1.559 B7.327 C-82.652 F14.38
X49.831 Y-62.864 Z-1.565 B7.379 C-85.574 F14.59
X53.105 Y-63.497 Z-1.562 B7.36 C-88.522 F14.3
X56.393 Y-63.96 Z-1.561 C-91.478 F14.31
X59.668 Y-64.255 Z-1.563 B7.379 C-94.426 F14.39
X63.004 Y-64.367 Z-1.557 B7.327 C-97.348 F14.36
X66.356 Y-64.307 Z-1.554 B7.294 C-100.304 F14.24
X69.699 Y-64.075 Z-1.553 B7.28 C-103.279 F14.2
X73.01 Y-63.679 Z-1.55 B7.26 C-106.227 F14.31
X76.281 Y-63.117 C-109.184 F14.32
X79.49 Y-62.398 Z-1.553 B7.28 C-112.132 F14.4
X82.698 Y-61.494 Z-1.55 B7.26 C-115.08 F14.31
X85.843 Y-60.434 C-118.036 F14.32
X88.902 Y-59.228 Z-1.553 B7.28 C-120.984 F14.4
X91.935 Y-57.843 Z-1.55 B7.26 C-123.933 F14.31
X94.88 Y-56.313 C-126.889 F14.32
X97.718 Y-54.653 Z-1.553 B7.28 C-129.837 F14.4
X100.499 Y-52.816 Z-1.55 B7.26 C-132.785 F14.31
X103.173 Y-50.849 C-135.741 F14.32
X105.719 Y-48.77 Z-1.553 B7.28 C-138.689 F14.4
X108.187 Y-46.529 Z-1.55 B7.26 C-141.637 F14.31
X110.528 Y-44.176 C-144.593 F14.32
X112.726 Y-41.732 Z-1.553 B7.28 C-147.542 F14.4
X114.817 Y-39.136 Z-1.55 B7.26 C-150.49 F14.31
X116.766 Y-36.45 C-153.446 F14.32
X118.56 Y-33.695 Z-1.553 B7.28 C-156.394 F14.4
X120.229 Y-30.81 Z-1.55 B7.26 C-159.342 F14.31
X120.885 Y-29.575 B7.258 C-160.585 F34.03
X121.743 Y-27.857 B7.26 C-162.298 F24.73
X123.093 Y-24.86 Z-1.553 B7.28 C-165.246 F14.4
X124.305 Y-21.756 Z-1.555 B7.294 C-168.221 F14.24
X125.346 Y-18.638 Z-1.559 B7.327 C-171.177 F14.38
X126.214 Y-15.531 Z-1.565 B7.379 C-174.098 F14.59
X126.933 Y-12.271 Z-1.559 B7.327 C-177.02 F14.36
X127.486 Y-8.964 Z-1.555 B7.294 C-179.976 F14.24
X127.868 Y-5.635 Z-1.553 B7.28 C-182.95 F14.21
X128.07 Y-2.307 Z-1.551 B7.26 C-185.899 F14.31
X128.103 Y1.013 C-188.854 F14.32
X127.971 Y4.299 Z-1.553 B7.28 C-191.803 F14.4
X127.658 Y7.618 Z-1.551 B7.26 C-194.751 F14.31
X127.179 Y10.904 C-197.707 F14.32
X126.541 Y14.129 Z-1.553 B7.28 C-200.655 F14.4
X125.722 Y17.362 Z-1.551 B7.26 C-203.603 F14.31
X124.744 Y20.534 C-206.559 F14.32
X123.618 Y23.624 Z-1.553 B7.28 C-209.507 F14.4
X122.31 Y26.691 Z-1.551 B7.26 C-212.456 F14.31
X120.855 Y29.674 C-215.412 F14.32
X119.267 Y32.553 Z-1.553 B7.28 C-218.36 F14.4
X117.062 Y36.084 Z-1.552 B7.273 C-222.054 F11.44
X114.668 Y39.431 Z-1.555 B7.297 C-225.738 F11.51
X112.179 Y42.421 Z-1.551 B7.265 C-229.171 F12.27
X109.525 Y45.251 Z-1.55 B7.259 C-232.621 F12.26
X106.736 Y47.893 Z-1.553 B7.28 C-236.065 F12.33
X104.19 Y50.041 Z-1.55 B7.26 C-239.013 F14.31
X101.55 Y52.049 C-241.969 F14.32
X98.837 Y53.903 Z-1.553 B7.28 C-244.917 F14.41
X96. Y55.656 Z-1.55 B7.26 C-247.865 F14.31
X93.091 Y57.255 C-250.821 F14.32
X90.134 Y58.692 Z-1.553 B7.28 C-253.769 F14.4
X87.139 Y60.13 Z-1.557 B7.311 C-256.722 F14.32
X83.176 Y61.472 Z-1.554 B7.283 C-260.421 F11.4
X79.155 Y62.553 B7.285 C-264.133 F11.41
X75.125 Y63.368 Z-1.559 B7.317 C-267.828 F11.5
X71.137 Y63.919 Z-1.567 B7.379 C-271.475 F11.69
X67.403 Y64.206 Z-1.56 B7.329 C-274.766 F12.77
X63.649 Y64.278 Z-1.557 B7.304 C-278.09 F12.69
X59.91 Y64.135 Z-1.556 B7.302 C-281.427 F12.69
X56.225 Y63.782 Z-1.559 B7.325 C-284.753 F12.77
X53.73 Y63.496 Z-1.556 B7.297 C-286.96 F19.05
X51.249 Y63.114 Z-1.553 B7.28 C-289.18 F19.
X47.997 Y62.379 Z-1.551 B7.26 C-292.128 F14.31
X44.802 Y61.483 C-295.084 F14.32
X41.685 Y60.438 Z-1.553 B7.28 C-298.032 F14.4
X38.586 Y59.21 Z-1.551 B7.26 C-300.98 F14.31
X35.567 Y57.833 C-303.936 F14.32
X32.649 Y56.32 Z-1.553 B7.28 C-306.885 F14.4
X29.776 Y54.63 Z-1.551 B7.26 C-309.833 F14.31
X27.004 Y52.806 C-312.789 F14.32
X24.353 Y50.862 Z-1.553 B7.28 C-315.737 F14.4
X21.774 Y48.75 Z-1.551 B7.26 C-318.685 F14.31
X19.317 Y46.52 C-321.641 F14.32
X16.998 Y44.191 Z-1.553 B7.28 C-324.589 F14.4
X15.247 Y42.258 Z-1.551 B7.263 C-326.895 F18.29
X14.774 Y41.709 B7.26 C-327.538 F65.76
X12.689 Y39.127 C-330.494 F14.32
X10.755 Y36.47 Z-1.553 B7.28 C-333.442 F14.4
X8.493 Y32.978 Z-1.552 B7.273 C-337.135 F11.44
X6.479 Y29.392 Z-1.556 B7.297 C-340.82 F11.52
X5.569 Y27.541 Z-1.554 B7.283 C-342.641 F23.15
G94 X5.487 Y27.572 F100.
G93 X4.496 Y25.406 B7.255 C-344.754 F19.99
X4.107 Y24.487 Z-1.555 B7.246 C-345.649 F47.47
X3.79 Y23.698 Z-1.556 B7.24 C-346.416 F55.52
X3.655 Y23.349 Z-1.557 B7.238 C-346.757 F125.51
X3.533 Y23.022 Z-1.558 B7.236 C-347.076 F134.53
X3.42 Y22.708 Z-1.559 B7.234 C-347.382 F140.02
X3.311 Y22.39 Z-1.56 B7.232 C-347.691 F139.09
X3.203 Y22.071 Z-1.561 B7.231 C-348. F139.14
X3.096 Y21.756 Z-1.562 B7.23 C-348.306 F140.45
X2.984 Y21.429 Z-1.564 B7.229 C-348.622 F135.59
X2.865 Y21.08 Z-1.565 C-348.959 F127.17
X2.6 Y20.294 Z-1.567 B7.228 C-349.714 F56.66
X2.301 Y19.375 Z-1.569 B7.229 C-350.591 F48.72
X1.641 Y17.175 Z-1.574 B7.237 C-352.664 F20.55
X0.495 Y11.982 Z-1.582 B7.294 C-357.464 F8.87
X0.016 Y9.195 Z-1.585 B7.313 C-360. F16.74
(REWIND: TOOL IS RETRACTING DUE TO ROTARY AXES LIMITS.)
G94 Y9.402 Z0.028 F500.
G0 C0.
X0.016 Y9.402
Z0.028
G1 Y9.195 Z-1.585 F250.
G93 X-0.372 Y5.883 B7.316 C-2.966 F14.26
X-0.59 Y2.59 Z-1.587 B7.338 C-5.922 F14.35
X-0.644 Y-0.657 Z-1.592 B7.379 C-8.852 F14.52
X-0.46 Y-4.835 Z-1.585 B7.323 C-12.521 F11.45
X-0.008 Y-9. Z-1.582 B7.297 C-16.23 F11.37
X0.542 Y-12.292 Z-1.579 B7.278 C-19.178 F14.3
X1.254 Y-15.537 C-22.134 F14.31
X2.12 Y-18.711 Z-1.582 B7.297 C-25.082 F14.4
X3.468 Y-22.653 Z-1.579 B7.273 C-28.766 F11.45
X5.053 Y-26.478 Z-1.58 B7.28 C-32.46 F11.47
X6.502 Y-29.481 Z-1.581 B7.294 C-35.434 F14.24
X8.077 Y-32.368 Z-1.585 B7.327 C-38.39 F14.38
X9.761 Y-35.121 Z-1.592 B7.379 C-41.311 F14.59
X12.146 Y-38.562 Z-1.585 B7.323 C-44.98 F11.44
X14.751 Y-41.848 Z-1.582 B7.297 C-48.689 F11.37
X16.998 Y-44.311 Z-1.579 B7.278 C-51.637 F14.31
X19.356 Y-46.646 C-54.593 F14.32
X21.806 Y-48.839 Z-1.582 B7.297 C-57.54 F14.4
X25.025 Y-51.461 Z-1.585 B7.323 C-61.25 F11.42
X28.33 Y-53.83 Z-1.592 B7.379 C-64.918 F11.6
X31.17 Y-55.581 Z-1.589 B7.36 C-67.866 F14.29
X34.082 Y-57.179 C-70.822 F14.31
X37.041 Y-58.614 Z-1.591 B7.379 C-73.771 F14.39
X40.116 Y-59.911 Z-1.588 B7.36 C-76.719 F14.29
X43.239 Y-61.045 Z-1.589 C-79.675 F14.3
X46.384 Y-62.011 Z-1.591 B7.379 C-82.623 F14.39
X50.446 Y-63. Z-1.585 B7.323 C-86.291 F11.45
X54.571 Y-63.729 Z-1.582 B7.297 C-90. F11.38
X57.884 Y-64.109 Z-1.58 B7.278 C-92.948 F14.31
X61.197 Y-64.319 C-95.904 F14.32
X64.484 Y-64.362 Z-1.583 B7.297 C-98.852 F14.4
X68.649 Y-64.191 Z-1.58 B7.273 C-102.537 F11.44
X72.768 Y-63.759 Z-1.581 B7.28 C-106.23 F11.47
X76.055 Y-63.205 Z-1.582 B7.294 C-109.205 F14.24
X79.267 Y-62.497 Z-1.586 B7.327 C-112.161 F14.38
X82.38 Y-61.648 Z-1.593 B7.379 C-115.082 F14.59
X86.35 Y-60.319 Z-1.586 B7.323 C-118.75 F11.44
X90.233 Y-58.737 Z-1.583 B7.297 C-122.46 F11.37
X93.234 Y-57.278 Z-1.58 B7.278 C-125.408 F14.3
X96.144 Y-55.676 C-128.364 F14.31
X98.943 Y-53.947 Z-1.582 B7.297 C-131.312 F14.4
X101.673 Y-52.036 Z-1.579 B7.278 C-134.26 F14.31
X104.291 Y-49.997 C-137.215 F14.32
X106.779 Y-47.85 Z-1.582 B7.297 C-140.163 F14.4
X109.792 Y-44.997 Z-1.585 B7.323 C-143.873 F11.43
X112.564 Y-42.024 Z-1.592 B7.379 C-147.541 F11.6
X115.202 Y-38.772 Z-1.586 B7.323 C-151.209 F11.44
X117.629 Y-35.352 Z-1.583 B7.297 C-154.919 F11.37
X119.378 Y-32.51 Z-1.58 B7.278 C-157.867 F14.3
X119.865 Y-31.658 B7.276 C-158.737 F48.56
X120.974 Y-29.596 B7.278 C-160.823 F20.29
X122.407 Y-26.634 Z-1.583 B7.297 C-163.771 F14.4
X123.685 Y-23.556 Z-1.58 B7.278 C-166.719 F14.31
X124.8 Y-20.43 C-169.675 F14.32
X125.747 Y-17.282 Z-1.583 B7.297 C-172.623 F14.4
X126.746 Y-13.243 Z-1.582 B7.29 C-176.316 F11.44
X127.481 Y-9.195 Z-1.585 B7.313 C-180. F11.51
X127.871 Y-5.882 B7.316 C-182.966 F14.26
X128.091 Y-2.59 Z-1.587 B7.338 C-185.922 F14.35
X128.148 Y0.658 Z-1.591 B7.379 C-188.852 F14.52
X127.962 Y4.835 Z-1.585 B7.323 C-192.521 F11.45
X127.509 Y9. Z-1.582 B7.297 C-196.23 F11.37
X126.959 Y12.292 Z-1.58 B7.278 C-199.178 F14.3
X126.247 Y15.537 C-202.134 F14.31
X125.381 Y18.711 Z-1.582 B7.297 C-205.082 F14.4
X124.032 Y22.654 Z-1.579 B7.273 C-208.766 F11.45
X122.447 Y26.478 Z-1.58 B7.28 C-212.46 F11.47
X120.998 Y29.481 Z-1.582 B7.294 C-215.434 F14.24
X119.422 Y32.367 Z-1.586 B7.327 C-218.39 F14.38
X117.738 Y35.12 Z-1.593 B7.379 C-221.311 F14.59
X115.353 Y38.562 Z-1.586 B7.323 C-224.98 F11.44
X112.749 Y41.849 Z-1.583 B7.297 C-228.689 F11.37
X110.502 Y44.311 Z-1.58 B7.278 C-231.637 F14.31
X108.144 Y46.646 C-234.593 F14.32
X105.694 Y48.839 Z-1.583 B7.297 C-237.54 F14.4
X102.475 Y51.461 Z-1.586 B7.323 C-241.25 F11.42
X99.169 Y53.829 Z-1.593 B7.379 C-244.918 F11.6
X96.33 Y55.581 Z-1.59 B7.36 C-247.866 F14.29
X93.418 Y57.18 Z-1.589 C-250.822 F14.31
X90.46 Y58.616 Z-1.591 B7.379 C-253.771 F14.39
X87.384 Y59.911 Z-1.589 B7.36 C-256.719 F14.29
X84.261 Y61.043 Z-1.59 C-259.675 F14.3
X81.115 Y62.007 Z-1.593 B7.379 C-262.623 F14.39
X77.881 Y62.813 Z-1.591 B7.36 C-265.571 F14.3
X74.624 Y63.451 C-268.527 F14.31
X71.371 Y63.919 Z-1.595 B7.379 C-271.475 F14.4
X68.052 Y64.188 Z-1.589 B7.34 C-274.406 F14.35
X64.719 Y64.286 Z-1.586 B7.32 C-277.36 F14.29
X61.398 Y64.216 Z-1.585 B7.319 C-280.323 F14.29
X58.116 Y63.979 Z-1.587 B7.338 C-283.278 F14.37
X55.615 Y63.768 Z-1.584 B7.312 C-285.485 F19.06
X53.126 Y63.462 Z-1.583 B7.297 C-287.704 F19.01
X49.054 Y62.67 Z-1.585 B7.323 C-291.414 F11.43
X45.119 Y61.649 Z-1.592 B7.379 C-295.082 F11.6
X41.149 Y60.321 Z-1.586 B7.323 C-298.75 F11.44
X37.266 Y58.738 Z-1.583 B7.297 C-302.46 F11.37
X34.265 Y57.279 Z-1.58 B7.278 C-305.408 F14.3
X31.355 Y55.677 C-308.364 F14.31
X28.557 Y53.948 Z-1.583 B7.297 C-311.312 F14.4
X25.827 Y52.036 Z-1.58 B7.278 C-314.26 F14.31
X23.209 Y49.998 C-317.215 F14.32
X20.721 Y47.85 Z-1.583 B7.297 C-320.163 F14.4
X17.709 Y44.996 Z-1.586 B7.323 C-323.873 F11.43
X14.937 Y42.023 Z-1.593 B7.379 C-327.541 F11.6
X12.3 Y38.771 Z-1.586 B7.323 C-331.209 F11.44
X9.872 Y35.351 Z-1.583 B7.297 C-334.919 F11.37
X8.123 Y32.509 Z-1.58 B7.278 C-337.867 F14.3
X6.527 Y29.595 C-340.823 F14.31
X6.073 Y28.698 B7.282 C-341.722 F47.16
X5.094 Y26.634 Z-1.582 B7.297 C-343.771 F20.72
X3.816 Y23.556 Z-1.579 B7.278 C-346.719 F14.31
X2.701 Y20.43 C-349.675 F14.32
X1.753 Y17.282 Z-1.582 B7.297 C-352.623 F14.4
X0.752 Y13.243 Z-1.581 B7.29 C-356.316 F11.44
X0.495 Y11.982 Z-1.582 B7.294 C-357.464 F36.88
G94 X0.432 Y11.993 Z-1.583 F100.
G93 X0.125 Y10.325 Z-1.585 B7.284 C-358.982 F27.95
X-0.052 Y9.213 Z-1.587 B7.281 C-360. F41.88
(REWIND: TOOL IS RETRACTING DUE TO ROTARY AXES LIMITS.)
G94 Y9.42 Z0.032 F500.
G0 C0.
X-0.052 Y9.42
Z0.032
G1 Y9.213 Z-1.587 F250.
G93 X-0.143 Y8.584 Z-1.589 B7.28 C-0.575 F74.15
X-0.368 Y6.723 Z-1.596 B7.281 C-2.288 F25.01
X-0.536 Y4.894 Z-1.603 B7.288 C-3.971 F25.49
X-0.648 Y3.23 Z-1.609 B7.301 C-5.495 F28.1
X-0.72 Y1.644 Z-1.614 B7.317 C-6.939 F29.6
X-0.685 Y-1.587 Z-1.62 B7.365 C-9.866 F14.57
X-0.59 Y-3.745 Z-1.622 B7.379 C-11.803 F21.9
X-0.295 Y-7.069 Z-1.62 B7.36 C-14.751 F14.29
X0.167 Y-10.358 C-17.707 F14.3
X0.787 Y-13.589 Z-1.622 B7.379 C-20.656 F14.39
X1.778 Y-17.574 Z-1.617 B7.329 C-24.259 F11.66
X3.018 Y-21.491 Z-1.615 B7.307 C-27.897 F11.6
X4.551 Y-25.432 Z-1.617 B7.328 C-31.672 F11.22
X6.297 Y-29.194 Z-1.622 B7.379 C-35.41 F11.38
X8.353 Y-32.925 Z-1.617 B7.328 C-39.148 F11.23
X10.649 Y-36.516 Z-1.616 B7.307 C-42.922 F11.18
X13.053 Y-39.808 Z-1.617 B7.329 C-46.561 F11.64
X15.605 Y-42.889 Z-1.622 B7.379 C-50.164 F11.8
X17.901 Y-45.312 Z-1.62 B7.36 C-53.112 F14.29
X20.306 Y-47.606 C-56.068 F14.3
X22.799 Y-49.754 Z-1.623 B7.379 C-59.016 F14.39
X25.41 Y-51.835 Z-1.622 B7.37 C-61.967 F14.28
X28.102 Y-53.766 Z-1.623 B7.379 C-64.918 F14.33
X30.941 Y-55.525 Z-1.62 B7.36 C-67.866 F14.29
X33.852 Y-57.131 C-70.822 F14.3
X36.811 Y-58.574 Z-1.622 B7.379 C-73.771 F14.38
X39.885 Y-59.876 Z-1.62 B7.36 C-76.719 F14.29
X43.006 Y-61.015 C-79.675 F14.3
X46.15 Y-61.986 Z-1.622 B7.379 C-82.623 F14.39
X50.345 Y-63.015 Z-1.617 B7.329 C-86.417 F11.07
X54.599 Y-63.765 Z-1.616 B7.31 C-90.248 F11.02
X58.586 Y-64.233 Z-1.618 B7.331 C-93.829 F11.82
X62.521 Y-64.456 Z-1.623 B7.379 C-97.377 F11.98
X65.859 Y-64.418 Z-1.62 B7.36 C-100.325 F14.29
X69.175 Y-64.211 C-103.281 F14.3
X72.444 Y-63.842 Z-1.622 B7.379 C-106.229 F14.39
X75.734 Y-63.29 Z-1.62 B7.36 C-109.178 F14.29
X78.978 Y-62.576 C-112.134 F14.31
X82.15 Y-61.708 Z-1.623 B7.379 C-115.082 F14.39
X85.331 Y-60.704 Z-1.622 B7.37 C-118.033 F14.29
X88.433 Y-59.551 Z-1.623 B7.379 C-120.984 F14.34
X91.476 Y-58.179 Z-1.62 B7.36 C-123.932 F14.29
X94.431 Y-56.661 C-126.888 F14.3
X97.279 Y-55.013 Z-1.622 B7.379 C-129.836 F14.39
X100.84 Y-52.677 Z-1.617 B7.328 C-133.574 F11.24
X104.242 Y-50.113 Z-1.615 B7.307 C-137.349 F11.18
X107.337 Y-47.461 Z-1.617 B7.329 C-140.987 F11.64
X110.21 Y-44.68 Z-1.622 B7.379 C-144.59 F11.8
X112.449 Y-42.205 Z-1.62 B7.36 C-147.538 F14.29
X114.55 Y-39.631 C-150.494 F14.3
X116.5 Y-36.981 Z-1.622 B7.379 C-153.443 F14.39
X118.826 Y-33.414 Z-1.617 B7.328 C-157.18 F11.24
X120.296 Y-30.864 Z-1.615 B7.31 C-159.784 F16.2
X120.916 Y-29.702 Z-1.616 B7.307 C-160.955 F36.11
X122.691 Y-26.034 Z-1.617 B7.329 C-164.594 F11.64
X124.211 Y-22.335 Z-1.622 B7.379 C-168.197 F11.8
X125.271 Y-19.17 Z-1.62 B7.36 C-171.145 F14.29
X126.165 Y-15.971 C-174.101 F14.3
X126.889 Y-12.762 Z-1.623 B7.379 C-177.049 F14.39
X127.499 Y-9.481 Z-1.622 B7.37 C-180. F14.28
X127.939 Y-6.199 Z-1.623 B7.379 C-182.951 F14.34
X128.157 Y-2.867 Z-1.62 B7.36 C-185.899 F14.29
X128.207 Y0.456 C-188.855 F14.3
X128.09 Y3.745 Z-1.622 B7.379 C-191.803 F14.39
X127.795 Y7.069 Z-1.62 B7.36 C-194.751 F14.29
X127.333 Y10.358 C-197.707 F14.3
X126.713 Y13.589 Z-1.622 B7.379 C-200.656 F14.39
X125.722 Y17.574 Z-1.617 B7.329 C-204.259 F11.66
X124.482 Y21.491 Z-1.615 B7.307 C-207.897 F11.6
X122.949 Y25.432 Z-1.617 B7.328 C-211.672 F11.22
X121.203 Y29.194 Z-1.622 B7.379 C-215.41 F11.38
X119.147 Y32.925 Z-1.617 B7.328 C-219.148 F11.23
X116.851 Y36.516 Z-1.616 B7.307 C-222.922 F11.18
X114.447 Y39.808 Z-1.617 B7.329 C-226.561 F11.64
X111.895 Y42.889 Z-1.622 B7.379 C-230.164 F11.8
X109.599 Y45.312 Z-1.62 B7.36 C-233.112 F14.29
X107.194 Y47.606 C-236.068 F14.3
X104.701 Y49.754 Z-1.623 B7.379 C-239.016 F14.39
X102.09 Y51.835 Z-1.622 B7.37 C-241.967 F14.28
X99.398 Y53.766 Z-1.623 B7.379 C-244.918 F14.33
X96.559 Y55.525 Z-1.62 B7.36 C-247.866 F14.29
X93.648 Y57.131 C-250.822 F14.3
X90.689 Y58.574 Z-1.622 B7.379 C-253.771 F14.38
X87.615 Y59.876 Z-1.619 B7.36 C-256.719 F14.29
X84.494 Y61.015 C-259.675 F14.3
X81.35 Y61.986 Z-1.622 B7.379 C-262.623 F14.39
X78.115 Y62.799 Z-1.621 B7.36 C-265.571 F14.29
X74.858 Y63.444 Z-1.622 C-268.527 F14.31
X71.605 Y63.919 Z-1.626 B7.379 C-271.475 F14.39
X68.286 Y64.272 Z-1.623 B7.37 C-274.426 F14.28
X64.979 Y64.456 B7.379 C-277.377 F14.34
X61.642 Y64.418 Z-1.62 B7.36 C-280.325 F14.29
X58.325 Y64.211 C-283.281 F14.3
X55.056 Y63.842 Z-1.622 B7.379 C-286.229 F14.39
X51.766 Y63.29 Z-1.62 B7.36 C-289.178 F14.29
X48.522 Y62.576 C-292.134 F14.31
X45.35 Y61.708 Z-1.623 B7.379 C-295.082 F14.39
X42.169 Y60.704 Z-1.622 B7.37 C-298.033 F14.29
X39.067 Y59.551 Z-1.623 B7.379 C-300.984 F14.34
X36.024 Y58.179 Z-1.62 B7.36 C-303.932 F14.29
X33.069 Y56.661 C-306.888 F14.3
X30.221 Y55.013 Z-1.622 B7.379 C-309.836 F14.39
X26.66 Y52.677 Z-1.617 B7.328 C-313.574 F11.24
X23.258 Y50.113 Z-1.615 B7.307 C-317.349 F11.18
X20.163 Y47.461 Z-1.617 B7.329 C-320.987 F11.64
X17.29 Y44.68 Z-1.622 B7.379 C-324.59 F11.8
X15.051 Y42.205 Z-1.62 B7.36 C-327.538 F14.29
X12.95 Y39.631 C-330.494 F14.3
X11. Y36.981 Z-1.622 B7.379 C-333.443 F14.39
X8.674 Y33.414 Z-1.617 B7.328 C-337.18 F11.24
X6.584 Y29.702 Z-1.616 B7.307 C-340.955 F11.18
X4.809 Y26.034 Z-1.617 B7.329 C-344.594 F11.64
X3.289 Y22.335 Z-1.622 B7.379 C-348.197 F11.8
X2.229 Y19.17 Z-1.62 B7.36 C-351.145 F14.29
X1.335 Y15.971 C-354.101 F14.3
X0.611 Y12.762 Z-1.623 B7.379 C-357.049 F14.39
X0.442 Y11.938 B7.375 C-357.79 F56.79
X0.001 Y9.481 Z-1.622 B7.37 C-360. F19.08
(REWIND: TOOL IS RETRACTING DUE TO ROTARY AXES LIMITS.)
G94 Y9.693 Z0.021 F500.
G0 C360.
X0.001 Y9.693
Z0.021
G1 Y9.481 Z-1.622 F250.
G93 X-0.439 Y6.199 Z-1.623 B7.379 C357.049 F14.34
X-0.657 Y2.867 Z-1.62 B7.36 C354.101 F14.29
X-0.707 Y-0.456 C351.145 F14.3
X-0.685 Y-1.587 B7.365 C350.134 F41.92
G94 X-0.748 Y-1.589 Z-1.621 F100.
G93 X-0.718 Y-3.416 Z-1.668 B7.7 C348.195 F23.42
X-0.652 Y-5.133 Z-1.724 B8.064 C346.319 F24.4
X-0.554 Y-6.775 Z-1.79 B8.47 C344.46 F24.85
X-0.451 Y-8.191 Z-1.859 B8.874 C342.807 F28.12
X-0.366 Y-9.319 Z-1.922 B9.238 C341.463 F34.67
X-0.293 Y-10.286 Z-1.982 B9.583 C340.295 F39.92
X-0.101 Y-12.017 Z-2.109 B10.307 C338.132 F21.57
X0.186 Y-13.44 Z-2.106 B10.286 C336.872 F32.47
X0.839 Y-16.213 Z-2.102 B10.26 C334.382 F16.49
X1.604 Y-18.942 B10.254 C331.885 F16.5
X2.469 Y-21.567 B10.261 C329.442 F16.9
X3.429 Y-24.127 Z-2.106 B10.287 C327.008 F17.01
X4.476 Y-26.609 Z-2.113 B10.331 C324.59 F17.18
X5.684 Y-29.122 Z-2.106 B10.287 C322.172 F16.91
X6.993 Y-31.579 Z-2.102 B10.261 C319.738 F16.87
X8.396 Y-33.969 B10.254 C317.296 F16.88
X9.925 Y-36.349 B10.26 C314.798 F16.52
X11.533 Y-38.638 Z-2.106 B10.286 C312.309 F16.63
X13.208 Y-40.826 Z-2.113 B10.331 C309.836 F16.8
X15.016 Y-42.948 Z-2.106 B10.287 C307.418 F16.91
X16.908 Y-44.991 Z-2.102 B10.261 C304.984 F16.87
X18.873 Y-46.945 B10.254 C302.542 F16.88
X20.958 Y-48.857 B10.26 C300.044 F16.52
X23.096 Y-50.66 Z-2.106 B10.286 C297.555 F16.63
X25.273 Y-52.349 Z-2.113 B10.331 C295.082 F16.8
X27.562 Y-53.94 Z-2.106 B10.287 C292.664 F16.91
X29.911 Y-55.434 Z-2.102 B10.261 C290.23 F16.87
X32.31 Y-56.822 B10.254 C287.788 F16.88
X34.812 Y-58.141 B10.26 C285.29 F16.52
X37.339 Y-59.34 Z-2.106 B10.286 C282.8 F16.63
X39.874 Y-60.42 Z-2.113 B10.331 C280.328 F16.8
X42.492 Y-61.376 Z-2.106 B10.287 C277.91 F16.91
X45.145 Y-62.222 Z-2.102 B10.261 C275.476 F16.87
X47.817 Y-62.954 B10.254 C273.033 F16.88
X50.573 Y-63.591 B10.26 C270.536 F16.52
X53.322 Y-64.108 Z-2.106 B10.286 C268.046 F16.63
X56.048 Y-64.505 Z-2.113 B10.331 C265.574 F16.8
X58.824 Y-64.763 Z-2.106 B10.287 C263.156 F16.91
X61.604 Y-64.906 Z-2.102 B10.261 C260.721 F16.87
X64.375 Y-64.933 B10.254 C258.279 F16.88
X67.202 Y-64.848 B10.26 C255.782 F16.52
X69.991 Y-64.647 Z-2.106 B10.286 C253.292 F16.63
X72.729 Y-64.338 Z-2.113 B10.331 C250.82 F16.8
X75.479 Y-63.881 Z-2.106 B10.287 C248.402 F16.91
X78.204 Y-63.311 Z-2.102 B10.261 C245.967 F16.87
X80.89 Y-62.632 B10.254 C243.525 F16.88
X83.602 Y-61.829 B10.26 C241.028 F16.52
X86.248 Y-60.924 Z-2.106 B10.286 C238.538 F16.63
X88.816 Y-59.927 Z-2.113 B10.331 C236.066 F16.8
X91.359 Y-58.785 Z-2.106 B10.287 C233.648 F16.91
X93.848 Y-57.54 Z-2.102 B10.261 C231.213 F16.87
X96.273 Y-56.199 B10.254 C228.771 F16.88
X98.691 Y-54.732 B10.26 C226.274 F16.52
X101.02 Y-53.184 Z-2.106 B10.286 C223.784 F16.63
X103.25 Y-51.566 Z-2.113 B10.331 C221.311 F16.8
X105.221 Y-49.992 Z-2.107 B10.294 C219.124 F18.69
X107.128 Y-48.348 Z-2.104 B10.271 C216.923 F18.65
X108.965 Y-46.641 Z-2.103 B10.263 C214.716 F18.66
X111.131 Y-44.428 C211.986 F15.1
X113.171 Y-42.143 Z-2.106 B10.286 C209.263 F15.19
X115.077 Y-39.805 Z-2.113 B10.331 C206.557 F15.35
X116.438 Y-38.014 Z-2.111 B10.319 C204.591 F20.87
X117.731 Y-36.189 C202.622 F20.92
X118.511 Y-35.022 Z-2.112 B10.325 C201.379 F33.22
X118.953 Y-34.337 Z-2.113 B10.331 C200.656 F57.12
X120.23 Y-32.154 Z-2.109 B10.309 C198.446 F18.57
X121.419 Y-29.933 Z-2.108 B10.301 C196.229 F18.58
X122.517 Y-27.685 Z-2.109 B10.309 C194.013 F18.64
X123.52 Y-25.42 Z-2.113 B10.331 C191.803 F18.75
X124.379 Y-23.342 Z-2.111 B10.319 C189.837 F20.87
X125.165 Y-21.249 C187.868 F20.92
X125.876 Y-19.147 Z-2.113 B10.331 C185.902 F21.01
X126.554 Y-16.71 Z-2.109 B10.309 C183.692 F18.57
X127.138 Y-14.259 Z-2.108 B10.301 C181.475 F18.58
X127.627 Y-11.806 Z-2.109 B10.309 C179.259 F18.64
X128.02 Y-9.361 Z-2.113 B10.331 C177.049 F18.75
X128.322 Y-7.132 Z-2.111 B10.319 C175.083 F20.87
X128.549 Y-4.908 C173.114 F20.92
X128.701 Y-2.694 Z-2.113 B10.331 C171.148 F21.
X128.736 Y-0.165 Z-2.109 B10.309 C168.938 F18.57
X128.677 Y2.353 Z-2.108 B10.301 C166.721 F18.58
X128.525 Y4.85 Z-2.109 B10.309 C164.505 F18.64
X128.283 Y7.315 Z-2.113 B10.331 C162.295 F18.75
X128.007 Y9.547 Z-2.111 B10.319 C160.329 F20.87
X127.66 Y11.756 C158.36 F20.92
X127.243 Y13.935 Z-2.113 B10.331 C156.393 F21.01
X126.633 Y16.39 Z-2.109 B10.309 C154.183 F18.57
X125.935 Y18.81 Z-2.108 B10.301 C151.967 F18.58
X125.152 Y21.185 Z-2.109 B10.309 C149.751 F18.64
X124.29 Y23.507 Z-2.113 B10.331 C147.541 F18.75
X123.455 Y25.595 Z-2.111 B10.319 C145.575 F20.88
X122.556 Y27.643 C143.606 F20.92
X121.599 Y29.644 Z-2.113 B10.331 C141.639 F21.01
X120.384 Y31.862 Z-2.109 B10.309 C139.429 F18.57
X119.092 Y34.025 Z-2.108 B10.301 C137.213 F18.58
X117.73 Y36.123 Z-2.109 B10.309 C134.997 F18.64
X116.306 Y38.149 Z-2.113 B10.331 C132.787 F18.75
X114.967 Y39.955 Z-2.111 B10.319 C130.82 F20.88
X113.576 Y41.706 C128.852 F20.92
X112.14 Y43.397 Z-2.113 B10.331 C126.885 F21.01
X110.401 Y45.233 Z-2.109 B10.309 C124.675 F18.57
X108.601 Y46.995 Z-2.108 B10.301 C122.459 F18.58
X106.75 Y48.676 Z-2.109 B10.309 C120.243 F18.64
X104.856 Y50.273 Z-2.113 B10.331 C118.033 F18.75
X103.101 Y51.678 Z-2.111 B10.319 C116.066 F20.88
X101.311 Y53.017 C114.098 F20.92
X99.492 Y54.287 Z-2.113 B10.331 C112.131 F21.01
X97.342 Y55.62 Z-2.109 B10.309 C109.921 F18.57
X95.153 Y56.865 Z-2.108 B10.301 C107.705 F18.58
X92.935 Y58.02 Z-2.109 B10.309 C105.489 F18.64
X90.697 Y59.082 Z-2.113 B10.331 C103.279 F18.75
X88.643 Y59.994 Z-2.111 B10.319 C101.312 F20.88
X86.57 Y60.833 C99.344 F20.92
X84.488 Y61.597 Z-2.113 B10.331 C97.377 F21.01
X82.07 Y62.339 Z-2.11 B10.309 C95.167 F18.57
X79.637 Y62.986 B10.301 C92.951 F18.58
X77.197 Y63.538 Z-2.112 B10.309 C90.735 F18.64
X74.764 Y63.994 Z-2.117 B10.331 C88.525 F18.75
X72.544 Y64.353 Z-2.113 B10.319 C86.558 F20.88
X70.326 Y64.636 Z-2.112 C84.589 F20.92
X68.117 Y64.845 Z-2.113 B10.331 C82.623 F21.01
X65.266 Y64.969 Z-2.106 B10.286 C80.15 F16.53
X62.417 Y64.971 Z-2.102 B10.26 C77.661 F16.49
X59.584 Y64.853 B10.254 C75.163 F16.5
X56.829 Y64.614 B10.261 C72.721 F16.9
X54.117 Y64.266 Z-2.106 B10.287 C70.287 F17.01
X51.46 Y63.818 Z-2.113 B10.331 C67.869 F17.18
X48.672 Y63.21 Z-2.106 B10.286 C65.396 F16.53
X45.916 Y62.486 Z-2.102 B10.26 C62.907 F16.49
X43.207 Y61.65 B10.254 C60.409 F16.5
X40.604 Y60.718 B10.261 C57.967 F16.9
X38.07 Y59.692 Z-2.106 B10.287 C55.533 F17.01
X35.614 Y58.581 Z-2.113 B10.331 C53.115 F17.18
X33.073 Y57.284 Z-2.106 B10.286 C50.642 F16.53
X30.592 Y55.883 Z-2.102 B10.26 C48.153 F16.49
X28.184 Y54.385 B10.254 C45.655 F16.5
X25.905 Y52.82 B10.261 C43.213 F16.9
X23.716 Y51.182 Z-2.106 B10.287 C40.779 F17.01
X21.625 Y49.483 Z-2.113 B10.331 C38.361 F17.18
X19.498 Y47.581 Z-2.106 B10.286 C35.888 F16.53
X17.456 Y45.594 Z-2.102 B10.26 C33.398 F16.49
X15.51 Y43.532 B10.254 C30.901 F16.5
X13.704 Y41.439 B10.261 C28.459 F16.9
X12.004 Y39.298 Z-2.106 B10.287 C26.025 F17.01
X10.415 Y37.122 Z-2.113 B10.331 C23.607 F17.18
X8.841 Y34.742 Z-2.106 B10.286 C21.134 F16.53
X7.373 Y32.3 Z-2.102 B10.26 C18.644 F16.49
X6.015 Y29.811 B10.254 C16.147 F16.5
X4.803 Y27.327 B10.261 C13.705 F16.9
X3.704 Y24.824 Z-2.106 B10.287 C11.27 F17.01
X2.721 Y22.315 Z-2.113 B10.331 C8.852 F17.18
X1.807 Y19.612 Z-2.106 B10.286 C6.38 F16.53
X1.009 Y16.878 Z-2.102 B10.26 C3.89 F16.49
X0.331 Y14.125 B10.254 C1.393 F16.5
X-0.21 Y11.414 B10.261 C-1.049 F16.9
X-0.635 Y8.713 Z-2.106 B10.287 C-3.484 F17.01
X-0.947 Y6.037 Z-2.113 B10.331 C-5.902 F17.18
X-1.143 Y3.191 Z-2.106 B10.286 C-8.374 F16.53
X-1.211 Y1.104 Z-2.103 B10.266 C-10.197 F22.51
X-1.219 Y0.343 Z-2.102 B10.26 C-10.864 F61.6
X-1.174 Y-2.492 B10.254 C-13.361 F16.5
X-1.006 Y-5.251 B10.261 C-15.803 F16.9
X-0.729 Y-7.97 Z-2.106 B10.287 C-18.238 F17.01
X-0.349 Y-10.638 Z-2.113 B10.331 C-20.656 F17.18
X-0.101 Y-12.017 Z-2.109 B10.307 C-21.868 F33.68
G94 X-0.186 Y-12.046 Z-2.111 F100.
G93 X0.135 Y-13.702 B10.278 C-23.348 F27.78
X0.284 Y-14.392 Z-2.112 B10.267 C-23.976 F65.94
X0.419 Y-14.979 Z-2.114 B10.26 C-24.517 F76.83
X0.483 Y-15.238 Z-2.116 B10.256 C-24.759 F172.65
X0.545 Y-15.479 Z-2.117 B10.253 C-24.987 F184.07
X0.608 Y-15.711 Z-2.118 B10.251 C-25.208 F190.55
X0.675 Y-15.944 Z-2.12 B10.248 C-25.431 F188.57
X0.743 Y-16.176 Z-2.121 B10.246 C-25.654 F188.61
X0.809 Y-16.407 Z-2.122 B10.244 C-25.874 F190.99
X0.875 Y-16.645 Z-2.124 B10.242 C-26.1 F185.24
X0.945 Y-16.898 Z-2.125 B10.24 C-26.34 F174.54
X1.101 Y-17.467 Z-2.128 B10.236 C-26.875 F78.15
X1.286 Y-18.129 Z-2.13 B10.232 C-27.492 F67.39
X1.751 Y-19.698 Z-2.134 B10.229 C-28.951 F28.41
X3.069 Y-23.283 Z-2.139 B10.246 C-32.35 F12.18
X3.185 Y-23.58 B10.245 C-32.63 F147.
X4.332 Y-26.303 C-35.237 F15.82
X5.582 Y-28.945 Z-2.143 B10.265 C-37.839 F15.91
X6.694 Y-31.114 B10.273 C-39.988 F19.18
X7.871 Y-33.221 Z-2.146 B10.295 C-42.131 F19.3
X9.104 Y-35.258 Z-2.152 B10.331 C-44.262 F19.47
X10.676 Y-37.555 Z-2.146 B10.293 C-46.68 F16.93
X12.337 Y-39.779 Z-2.143 B10.273 C-49.111 F16.9
X14.079 Y-41.921 Z-2.144 B10.271 C-51.547 F16.93
X15.957 Y-44.046 Z-2.143 B10.272 C-54.045 F16.49
X17.902 Y-46.071 Z-2.146 B10.292 C-56.538 F16.59
X19.9 Y-47.987 Z-2.152 B10.331 C-59.016 F16.74
X21.578 Y-49.487 Z-2.15 B10.319 C-60.983 F20.87
X23.295 Y-50.922 C-62.952 F20.91
X25.044 Y-52.289 Z-2.152 B10.331 C-64.918 F21.
X27.326 Y-53.884 Z-2.146 B10.293 C-67.335 F16.92
X29.666 Y-55.38 Z-2.143 B10.273 C-69.766 F16.9
X32.052 Y-56.77 Z-2.144 B10.271 C-72.202 F16.93
X34.56 Y-58.097 Z-2.143 B10.272 C-74.7 F16.49
X37.095 Y-59.305 Z-2.146 B10.292 C-77.193 F16.59
X39.642 Y-60.394 Z-2.152 B10.331 C-79.672 F16.74
X41.742 Y-61.205 Z-2.15 B10.319 C-81.639 F20.86
X43.856 Y-61.942 C-83.607 F20.91
X45.976 Y-62.605 Z-2.152 B10.331 C-85.574 F21.
X48.43 Y-63.225 Z-2.148 B10.309 C-87.784 F18.56
X50.895 Y-63.749 Z-2.146 B10.301 C-90. F18.57
X53.361 Y-64.179 Z-2.148 B10.309 C-92.216 F18.63
X55.816 Y-64.514 Z-2.152 B10.331 C-94.426 F18.74
X58.052 Y-64.763 Z-2.15 B10.319 C-96.393 F20.87
X60.283 Y-64.938 C-98.361 F20.91
X62.5 Y-65.038 Z-2.152 B10.331 C-100.328 F21.
X65.618 Y-65.003 Z-2.145 B10.286 C-103.033 F15.12
X68.724 Y-64.824 Z-2.141 B10.263 C-105.757 F15.09
X71.797 Y-64.503 Z-2.142 C-108.486 F15.12
X74.272 Y-64.149 Z-2.143 B10.271 C-110.693 F18.69
X76.707 Y-63.708 Z-2.146 B10.294 C-112.894 F18.8
X79.093 Y-63.187 Z-2.152 B10.331 C-115.082 F18.97
X81.532 Y-62.538 Z-2.146 B10.294 C-117.27 F18.68
X83.942 Y-61.8 Z-2.143 B10.271 C-119.471 F18.65
X86.311 Y-60.975 Z-2.142 B10.263 C-121.678 F18.66
X89.186 Y-59.819 Z-2.141 C-124.407 F15.1
X91.974 Y-58.548 Z-2.144 B10.286 C-127.131 F15.19
X94.661 Y-57.173 Z-2.152 B10.331 C-129.836 F15.35
X96.628 Y-56.081 Z-2.15 B10.319 C-131.803 F20.87
X98.547 Y-54.932 C-133.771 F20.91
X100.413 Y-53.729 Z-2.152 B10.331 C-135.738 F21.
X102.933 Y-51.894 Z-2.144 B10.286 C-138.443 F15.12
X105.359 Y-49.948 Z-2.141 B10.263 C-141.167 F15.09
X107.678 Y-47.906 Z-2.142 C-143.896 F15.12
X109.49 Y-46.183 Z-2.143 B10.271 C-146.103 F18.69
X111.219 Y-44.413 Z-2.146 B10.294 C-148.304 F18.81
X112.862 Y-42.606 Z-2.152 B10.331 C-150.492 F18.97
X114.474 Y-40.664 Z-2.146 B10.294 C-152.68 F18.68
X116.009 Y-38.666 Z-2.143 B10.271 C-154.88 F18.65
X117.463 Y-36.621 Z-2.142 B10.263 C-157.088 F18.66
X119.022 Y-34.201 Z-2.141 B10.262 C-159.623 F16.25
X119.136 Y-34.014 B10.263 C-159.817 F212.84
X120.672 Y-31.363 Z-2.145 B10.286 C-162.54 F15.19
X122.066 Y-28.686 Z-2.152 B10.331 C-165.246 F15.35
X123.036 Y-26.657 Z-2.15 B10.319 C-167.212 F20.87
X123.934 Y-24.608 C-169.181 F20.91
X124.757 Y-22.547 Z-2.152 B10.331 C-171.148 F21.
X125.748 Y-19.591 Z-2.145 B10.286 C-173.853 F15.12
X126.599 Y-16.599 Z-2.141 B10.263 C-176.576 F15.09
X127.306 Y-13.591 Z-2.142 C-179.306 F15.12
X127.784 Y-11.138 Z-2.143 B10.271 C-181.513 F18.69
X128.168 Y-8.694 Z-2.146 B10.294 C-183.714 F18.81
X128.46 Y-6.269 Z-2.152 B10.331 C-185.902 F18.97
X128.648 Y-3.753 Z-2.146 B10.294 C-188.09 F18.69
X128.743 Y-1.235 Z-2.143 B10.271 C-190.29 F18.65
Y1.274 Z-2.142 B10.263 C-192.497 F18.66
X128.595 Y4.368 Z-2.141 C-195.227 F15.1
X128.31 Y7.419 Z-2.144 B10.286 C-197.95 F15.19
X127.895 Y10.407 Z-2.152 B10.331 C-200.656 F15.35
X127.51 Y12.624 Z-2.15 B10.319 C-202.622 F20.87
X127.055 Y14.814 C-204.591 F20.91
X126.532 Y16.971 Z-2.152 B10.331 C-206.557 F21.
X125.717 Y19.708 Z-2.146 B10.292 C-209.036 F16.5
X124.79 Y22.401 Z-2.143 B10.272 C-211.529 F16.48
X123.755 Y25.036 Z-2.144 B10.271 C-214.027 F16.51
X122.629 Y27.56 Z-2.143 B10.273 C-216.463 F16.92
X121.414 Y30.012 Z-2.146 B10.293 C-218.894 F17.01
X120.118 Y32.381 Z-2.152 B10.331 C-221.311 F17.17
X118.976 Y34.32 Z-2.15 B10.319 C-223.278 F20.87
X117.777 Y36.209 C-225.247 F20.91
X116.526 Y38.044 Z-2.152 B10.331 C-227.213 F21.
X114.626 Y40.516 Z-2.144 B10.286 C-229.919 F15.12
X112.618 Y42.892 Z-2.141 B10.263 C-232.642 F15.08
X110.516 Y45.158 Z-2.142 C-235.371 F15.12
X108.747 Y46.924 Z-2.143 B10.271 C-237.579 F18.69
X106.933 Y48.608 Z-2.146 B10.294 C-239.779 F18.8
X105.084 Y50.204 Z-2.152 B10.331 C-241.967 F18.97
X103.155 Y51.728 Z-2.146 B10.296 C-244.099 F19.18
X101.175 Y53.178 Z-2.144 B10.275 C-246.242 F19.15
X99.153 Y54.549 Z-2.143 B10.268 C-248.391 F19.16
X96.616 Y56.106 Z-2.139 B10.247 C-250.992 F15.78
X94.03 Y57.541 C-253.598 F15.82
X91.412 Y58.849 Z-2.143 B10.268 C-256.199 F15.91
X89.191 Y59.848 B10.275 C-258.348 F19.19
X86.957 Y60.759 Z-2.146 B10.296 C-260.491 F19.3
X84.72 Y61.58 Z-2.152 B10.331 C-262.623 F19.46
X82.302 Y62.326 Z-2.149 B10.309 C-264.833 F18.56
X79.869 Y62.977 Z-2.148 B10.301 C-267.049 F18.58
X77.43 Y63.533 Z-2.151 B10.309 C-269.265 F18.64
X74.996 Y63.994 Z-2.156 B10.331 C-271.475 F18.75
X72.776 Y64.359 Z-2.152 B10.319 C-273.442 F20.87
X70.558 Y64.648 Z-2.151 C-275.411 F20.92
X68.349 Y64.862 Z-2.152 B10.331 C-277.377 F21.
X65.829 Y64.986 Z-2.146 B10.294 C-279.565 F18.68
X63.309 Y65.015 Z-2.143 B10.271 C-281.766 F18.65
X60.8 Y64.95 Z-2.142 B10.263 C-283.973 F18.66
X57.71 Y64.723 Z-2.141 C-286.702 F15.1
X54.667 Y64.36 Z-2.145 B10.286 C-289.426 F15.19
X51.69 Y63.869 Z-2.152 B10.331 C-292.131 F15.35
X49.484 Y63.426 Z-2.15 B10.319 C-294.098 F20.87
X47.306 Y62.914 C-296.066 F20.91
X45.163 Y62.336 Z-2.152 B10.331 C-298.033 F21.
X42.203 Y61.354 Z-2.145 B10.286 C-300.738 F15.12
X39.3 Y60.238 Z-2.141 B10.263 C-303.462 F15.09
X36.469 Y58.999 Z-2.142 C-306.191 F15.12
X34.22 Y57.908 Z-2.143 B10.271 C-308.398 F18.69
X32.034 Y56.748 Z-2.146 B10.294 C-310.599 F18.81
X29.919 Y55.526 Z-2.152 B10.331 C-312.787 F18.97
X27.793 Y54.166 Z-2.146 B10.294 C-314.975 F18.68
X25.723 Y52.73 Z-2.143 B10.271 C-317.175 F18.65
X23.716 Y51.224 Z-2.142 B10.263 C-319.383 F18.66
X21.329 Y49.249 Z-2.141 C-322.112 F15.1
X19.06 Y47.19 Z-2.144 B10.286 C-324.835 F15.19
X16.918 Y45.064 Z-2.152 B10.331 C-327.541 F15.35
X15.376 Y43.425 Z-2.15 B10.319 C-329.507 F20.87
X13.898 Y41.746 C-331.476 F20.91
X12.486 Y40.033 Z-2.152 B10.331 C-333.443 F21.
X10.644 Y37.519 Z-2.144 B10.286 C-336.148 F15.12
X8.924 Y34.927 Z-2.141 B10.263 C-338.872 F15.09
X7.336 Y32.276 Z-2.142 C-341.601 F15.12
X6.134 Y30.085 Z-2.143 B10.271 C-343.808 F18.69
X5.025 Y27.873 Z-2.146 B10.294 C-346.009 F18.81
X4.01 Y25.652 Z-2.152 B10.331 C-348.197 F18.97
X3.065 Y23.312 Z-2.146 B10.294 C-350.385 F18.68
X2.21 Y20.942 Z-2.143 B10.271 C-352.585 F18.65
X1.447 Y18.552 Z-2.142 B10.263 C-354.792 F18.66
X0.646 Y15.559 Z-2.141 C-357.522 F15.1
X0.042 Y12.837 Z-2.144 B10.284 C-360. F16.69
(REWIND: TOOL IS RETRACTING DUE TO ROTARY AXES LIMITS.)
G94 Y13.147 Z-0.432 F500.
G0 C0.
X0.042 Y13.147
Z-0.432
G1 Y12.837 Z-2.144 F250.
G93 X-0.011 Y12.566 Z-2.145 B10.286 C-0.245 F168.77
X-0.525 Y9.593 Z-2.152 B10.331 C-2.951 F15.35
X-0.832 Y7.365 Z-2.15 B10.319 C-4.917 F20.87
X-1.064 Y5.14 C-6.886 F20.91
X-1.222 Y2.926 Z-2.152 B10.331 C-8.852 F21.
X-1.267 Y-0.191 Z-2.145 B10.286 C-11.558 F15.12
X-1.168 Y-3.3 Z-2.141 B10.263 C-14.281 F15.09
X-0.927 Y-6.38 Z-2.142 C-17.011 F15.12
X-0.636 Y-8.863 Z-2.143 B10.271 C-19.218 F18.69
X-0.258 Y-11.308 Z-2.146 B10.294 C-21.419 F18.81
X-0.149 Y-11.923 Z-2.147 B10.302 C-21.977 F74.31
X0.201 Y-13.706 Z-2.152 B10.331 C-23.607 F25.48
X0.767 Y-16.097 Z-2.146 B10.295 C-25.737 F19.19
X1.419 Y-18.462 Z-2.143 B10.273 C-27.88 F19.15
X2.154 Y-20.792 B10.266 C-30.028 F19.17
X3.069 Y-23.283 Z-2.139 B10.246 C-32.35 F17.69
G94 X2.988 Y-23.325 Z-2.141 F100.
G93 X3.47 Y-24.607 Z-2.144 B10.239 C-33.567 F34.
X3.68 Y-25.135 Z-2.147 B10.237 C-34.081 F81.19
X3.864 Y-25.581 Z-2.15 B10.236 C-34.521 F95.2
X3.947 Y-25.775 Z-2.152 C-34.717 F215.49
X4.026 Y-25.955 Z-2.154 C-34.9 F231.12
X4.105 Y-26.125 Z-2.155 C-35.076 F240.61
X4.187 Y-26.295 Z-2.157 C-35.254 F239.03
X4.27 Y-26.465 Z-2.159 C-35.432 F239.2
X4.35 Y-26.634 Z-2.161 C-35.607 F241.55
X4.431 Y-26.81 Z-2.163 B10.237 C-35.789 F233.23
X4.518 Y-27. Z-2.165 C-35.982 F218.73
X4.71 Y-27.428 Z-2.168 B10.239 C-36.414 F97.4
X4.937 Y-27.928 Z-2.172 B10.241 C-36.914 F83.64
X5.493 Y-29.119 Z-2.178 B10.251 C-38.097 F35.19
X6.96 Y-31.815 Z-2.187 B10.289 C-40.845 F15.11
X7.086 Y-32.035 B10.286 C-41.066 F185.42
X8.701 Y-34.696 Z-2.184 B10.263 C-43.79 F15.08
X10.425 Y-37.262 C-46.519 F15.11
X11.898 Y-39.283 Z-2.185 B10.271 C-48.726 F18.68
X13.428 Y-41.23 Z-2.188 B10.294 C-50.927 F18.8
X15.006 Y-43.095 Z-2.194 B10.331 C-53.115 F18.97
X16.626 Y-44.855 Z-2.189 B10.298 C-55.189 F19.71
X18.305 Y-46.554 Z-2.186 B10.278 C-57.275 F19.68
X20.034 Y-48.185 B10.272 C-59.365 F19.69
X22.03 Y-49.916 Z-2.184 B10.258 C-61.677 F17.77
X24.078 Y-51.557 B10.262 C-63.991 F17.82
X26.166 Y-53.102 Z-2.188 B10.281 C-66.301 F17.92
X28.138 Y-54.462 Z-2.185 B10.266 C-68.389 F19.64
X30.145 Y-55.744 B10.264 C-70.481 F19.67
X32.179 Y-56.945 Z-2.187 B10.276 C-72.571 F19.76
X34.57 Y-58.194 Z-2.186 B10.277 C-74.945 F17.35
X36.985 Y-59.337 Z-2.189 B10.296 C-77.315 F17.44
X39.411 Y-60.371 Z-2.194 B10.331 C-79.672 F17.59
X41.511 Y-61.187 Z-2.192 B10.319 C-81.639 F20.86
X43.624 Y-61.929 C-83.607 F20.9
X45.744 Y-62.596 Z-2.194 B10.331 C-85.574 F20.99
X48.198 Y-63.22 Z-2.19 B10.309 C-87.784 F18.56
X50.663 Y-63.749 Z-2.189 B10.301 C-90. F18.57
X53.129 Y-64.182 Z-2.19 B10.309 C-92.216 F18.63
X55.584 Y-64.521 Z-2.194 B10.331 C-94.426 F18.74
X57.82 Y-64.776 Z-2.192 B10.319 C-96.393 F20.87
X60.051 Y-64.956 C-98.361 F20.91
X62.269 Y-65.062 Z-2.194 B10.331 C-100.328 F21.
X64.983 Y-65.05 Z-2.189 B10.296 C-102.685 F17.36
X67.687 Y-64.929 Z-2.186 B10.277 C-105.055 F17.34
X70.368 Y-64.7 Z-2.187 B10.276 C-107.429 F17.37
X73.068 Y-64.367 Z-2.183 B10.256 C-109.803 F17.28
X75.737 Y-63.928 B10.253 C-112.183 F17.31
X78.362 Y-63.388 Z-2.186 B10.268 C-114.56 F17.39
X80.725 Y-62.798 B10.275 C-116.709 F19.19
X83.044 Y-62.13 Z-2.189 B10.296 C-118.852 F19.3
X85.308 Y-61.391 Z-2.194 B10.331 C-120.984 F19.46
X87.61 Y-60.526 Z-2.189 B10.296 C-123.115 F19.18
X89.875 Y-59.58 Z-2.186 B10.275 C-125.258 F19.14
X92.093 Y-58.557 Z-2.185 B10.268 C-127.407 F19.16
X94.516 Y-57.322 Z-2.183 B10.253 C-129.784 F17.27
X96.87 Y-56. B10.256 C-132.164 F17.32
X99.147 Y-54.601 Z-2.187 B10.276 C-134.538 F17.42
X101.373 Y-53.079 Z-2.186 B10.277 C-136.912 F17.35
X103.515 Y-51.485 Z-2.189 B10.296 C-139.282 F17.45
X105.567 Y-49.831 Z-2.194 B10.331 C-141.639 F17.6
X107.274 Y-48.362 Z-2.192 B10.319 C-143.606 F20.86
X108.921 Y-46.847 C-145.575 F20.91
X110.506 Y-45.29 Z-2.194 B10.331 C-147.541 F21.
X112.438 Y-43.185 Z-2.188 B10.292 C-150.02 F16.5
X114.275 Y-41.006 Z-2.185 B10.272 C-152.513 F16.47
X116.007 Y-38.765 Z-2.186 B10.271 C-155.011 F16.51
X117.595 Y-36.502 B10.273 C-157.447 F16.92
X118.908 Y-34.472 Z-2.188 B10.29 C-159.593 F19.27
X119.076 Y-34.2 B10.293 C-159.878 F145.46
X120.444 Y-31.872 Z-2.194 B10.331 C-162.295 F17.17
X121.523 Y-29.897 Z-2.192 B10.319 C-164.262 F20.86
X122.53 Y-27.898 C-166.23 F20.91
X123.463 Y-25.883 Z-2.194 B10.331 C-168.197 F21.
X124.474 Y-23.364 Z-2.189 B10.296 C-170.554 F17.36
X125.38 Y-20.814 Z-2.186 B10.277 C-172.924 F17.34
X126.178 Y-18.244 Z-2.187 B10.276 C-175.298 F17.37
X126.886 Y-15.618 Z-2.183 B10.256 C-177.672 F17.28
X127.485 Y-12.98 B10.253 C-180.052 F17.31
X127.974 Y-10.345 Z-2.185 B10.268 C-182.429 F17.39
X128.318 Y-7.933 Z-2.186 B10.275 C-184.578 F19.19
X128.573 Y-5.534 Z-2.189 B10.296 C-186.721 F19.3
X128.741 Y-3.157 Z-2.194 B10.331 C-188.852 F19.46
X128.807 Y-0.699 Z-2.189 B10.296 C-190.984 F19.18
X128.784 Y1.755 Z-2.186 B10.275 C-193.127 F19.14
X128.672 Y4.196 B10.268 C-195.276 F19.16
X128.44 Y6.905 Z-2.183 B10.253 C-197.653 F17.27
X128.103 Y9.584 B10.256 C-200.033 F17.32
X127.665 Y12.22 Z-2.187 B10.276 C-202.407 F17.42
X127.093 Y14.855 Z-2.186 B10.277 C-204.781 F17.35
X126.425 Y17.441 Z-2.189 B10.296 C-207.151 F17.45
X125.665 Y19.965 Z-2.194 B10.331 C-209.508 F17.6
X124.948 Y22.099 Z-2.192 B10.319 C-211.475 F20.86
X124.165 Y24.196 C-213.443 F20.91
X123.32 Y26.251 Z-2.194 B10.331 C-215.41 F21.
X122.098 Y28.833 Z-2.188 B10.292 C-217.889 F16.5
X120.77 Y31.355 Z-2.185 B10.272 C-220.382 F16.47
X119.347 Y33.804 Z-2.186 B10.271 C-222.88 F16.51
X117.849 Y36.128 Z-2.185 B10.273 C-225.316 F16.92
X116.274 Y38.367 Z-2.188 B10.293 C-227.747 F17.01
X114.634 Y40.512 Z-2.194 B10.331 C-230.164 F17.17
X113.21 Y42.255 Z-2.192 B10.319 C-232.13 F20.86
X111.738 Y43.941 C-234.099 F20.91
X110.223 Y45.565 Z-2.194 B10.331 C-236.066 F21.
X108.626 Y47.154 Z-2.192 B10.319 C-238.032 F20.86
X106.987 Y48.68 C-240.001 F20.9
X105.312 Y50.141 Z-2.194 B10.331 C-241.967 F20.99
X103.117 Y51.855 Z-2.188 B10.293 C-244.385 F16.92
X100.858 Y53.474 Z-2.186 B10.273 C-246.815 F16.89
X98.548 Y54.989 B10.271 C-249.252 F16.92
X96.113 Y56.449 Z-2.185 B10.272 C-251.75 F16.49
X93.646 Y57.793 Z-2.188 B10.292 C-254.242 F16.58
X91.16 Y59.017 Z-2.194 B10.331 C-256.721 F16.74
X89.105 Y59.94 Z-2.192 B10.319 C-258.688 F20.86
X87.033 Y60.79 C-260.657 F20.9
X84.952 Y61.565 Z-2.194 B10.331 C-262.623 F20.99
X82.534 Y62.314 Z-2.191 B10.309 C-264.833 F18.56
X80.1 Y62.969 B10.301 C-267.049 F18.57
X77.661 Y63.53 Z-2.193 B10.309 C-269.265 F18.63
X75.228 Y63.994 Z-2.198 B10.331 C-271.475 F18.75
X73.008 Y64.364 Z-2.194 B10.319 C-273.442 F20.87
X70.79 Y64.658 Z-2.193 C-275.411 F20.91
X68.581 Y64.878 Z-2.194 B10.331 C-277.377 F21.
X66.334 Y65.017 Z-2.192 B10.319 C-279.343 F20.86
X64.096 Y65.082 C-281.312 F20.91
X61.875 Y65.073 Z-2.194 B10.331 C-283.279 F20.99
X59.021 Y64.914 Z-2.188 B10.292 C-285.758 F16.5
X56.185 Y64.634 Z-2.185 B10.272 C-288.25 F16.47
X53.381 Y64.238 Z-2.186 B10.271 C-290.748 F16.51
X50.663 Y63.726 Z-2.185 B10.273 C-293.185 F16.92
X47.996 Y63.111 Z-2.188 B10.293 C-295.615 F17.01
X45.391 Y62.399 Z-2.194 B10.331 C-298.033 F17.17
X43.239 Y61.737 Z-2.192 B10.319 C-299.999 F20.86
X41.123 Y61.009 C-301.968 F20.91
X39.048 Y60.218 Z-2.194 B10.331 C-303.934 F21.
X36.504 Y59.087 Z-2.188 B10.293 C-306.352 F16.92
X34.015 Y57.855 Z-2.185 B10.273 C-308.783 F16.9
X31.592 Y56.53 Z-2.186 B10.271 C-311.219 F16.93
X29.161 Y55.067 Z-2.185 B10.272 C-313.717 F16.49
X26.817 Y53.521 Z-2.188 B10.292 C-316.21 F16.59
X24.57 Y51.902 Z-2.194 B10.331 C-318.689 F16.74
X22.79 Y50.525 Z-2.192 B10.319 C-320.655 F20.87
X21.067 Y49.097 C-322.624 F20.91
X19.405 Y47.625 Z-2.194 B10.331 C-324.59 F21.
X17.47 Y45.722 Z-2.189 B10.296 C-326.948 F17.36
X15.619 Y43.748 Z-2.186 B10.277 C-329.317 F17.34
X13.858 Y41.714 Z-2.187 B10.276 C-331.691 F17.37
X12.306 Y39.803 Z-2.184 B10.262 C-333.841 F19.08
X10.832 Y37.848 C-335.995 F19.13
X9.442 Y35.86 Z-2.187 B10.276 C-338.145 F19.22
X8.012 Y33.574 Z-2.186 B10.277 C-340.519 F17.35
X6.687 Y31.255 Z-2.189 B10.296 C-342.889 F17.45
X5.469 Y28.917 Z-2.194 B10.331 C-345.246 F17.59
X4.494 Y26.888 Z-2.192 B10.319 C-347.212 F20.86
X3.591 Y24.839 C-349.181 F20.91
X2.762 Y22.778 Z-2.194 B10.331 C-351.148 F20.99
X1.835 Y20.075 Z-2.188 B10.292 C-353.626 F16.5
X1.024 Y17.342 Z-2.185 B10.272 C-356.119 F16.47
X0.334 Y14.595 Z-2.186 B10.271 C-358.617 F16.5
X0.008 Y13.059 B10.272 C-360. F29.8
(REWIND: TOOL IS RETRACTING DUE TO ROTARY AXES LIMITS.)
G94 Y13.377 Z-0.43 F500.
G0 C0.
X0.008 Y13.377
Z-0.43
G1 Y13.059 Z-2.186 F250.
G93 X-0.215 Y11.885 B10.273 C-1.053 F39.13
X-0.65 Y9.182 Z-2.188 B10.293 C-3.484 F17.01
X-0.971 Y6.501 Z-2.194 B10.331 C-5.902 F17.17
X-1.168 Y4.258 Z-2.192 B10.319 C-7.868 F20.86
X-1.291 Y2.023 C-9.837 F20.91
X-1.339 Y-0.197 Z-2.194 B10.331 C-11.803 F21.
X-1.25 Y-2.98 Z-2.188 B10.293 C-14.221 F16.92
X-1.046 Y-5.75 Z-2.186 B10.273 C-16.652 F16.9
X-0.731 Y-8.493 B10.271 C-19.088 F16.93
X-0.293 Y-11.296 Z-2.185 B10.272 C-21.586 F16.49
X0.256 Y-14.05 Z-2.188 B10.292 C-24.079 F16.59
X0.908 Y-16.742 Z-2.194 B10.331 C-26.557 F16.74
X1.515 Y-18.909 Z-2.192 B10.319 C-28.524 F20.87
X2.189 Y-21.043 C-30.493 F20.91
X2.67 Y-22.434 Z-2.193 B10.326 C-31.795 F31.7
X2.926 Y-23.137 Z-2.194 B10.331 C-32.459 F62.22
X3.753 Y-25.232 Z-2.192 B10.319 C-34.425 F20.86
X4.643 Y-27.287 C-36.394 F20.9
X5.593 Y-29.296 Z-2.194 B10.331 C-38.361 F20.99
X6.96 Y-31.815 Z-2.187 B10.289 C-40.845 F16.45
G94 X6.908 Y-31.854 Z-2.189 F100.
G93 X7.537 Y-32.967 Z-2.191 B10.275 C-41.975 F36.5
X8.22 Y-34.114 Z-2.196 B10.265 C-43.171 F34.73
X8.988 Y-35.332 Z-2.205 B10.258 C-44.478 F31.98
X9.772 Y-36.515 Z-2.215 B10.257 C-45.772 F32.36
X10.499 Y-37.576 Z-2.223 B10.261 C-46.938 F35.82
X11.208 Y-38.573 Z-2.228 B10.268 C-48.038 F37.82
X12.755 Y-40.523 Z-2.235 B10.294 C-50.264 F18.64
X13.578 Y-41.534 Z-2.234 B10.287 C-51.405 F36.
X15.136 Y-43.345 Z-2.235 B10.286 C-53.509 F19.58
X16.926 Y-45.261 Z-2.232 B10.272 C-55.801 F17.91
X18.777 Y-47.093 B10.274 C-58.096 F17.96
X20.679 Y-48.837 Z-2.236 B10.292 C-60.386 F18.05
X22.688 Y-50.538 Z-2.232 B10.272 C-62.681 F17.87
X24.75 Y-52.151 B10.269 C-64.981 F17.9
X26.854 Y-53.669 Z-2.234 B10.282 C-67.278 F17.98
X28.916 Y-55.024 Z-2.233 B10.284 C-69.448 F18.97
X31.006 Y-56.292 Z-2.236 B10.3 C-71.614 F19.07
X33.115 Y-57.47 Z-2.24 B10.331 C-73.771 F19.22
X35.118 Y-58.503 Z-2.238 B10.319 C-75.737 F20.85
X37.142 Y-59.463 C-77.706 F20.9
X39.18 Y-60.349 Z-2.24 B10.331 C-79.672 F20.99
X41.503 Y-61.231 Z-2.236 B10.3 C-81.828 F18.97
X43.851 Y-62.025 Z-2.234 B10.284 C-83.995 F18.95
X46.212 Y-62.729 B10.282 C-86.164 F18.98
X49.052 Y-63.44 Z-2.23 B10.262 C-88.72 F16.06
X51.9 Y-64.024 C-91.28 F16.09
X54.741 Y-64.481 Z-2.234 B10.282 C-93.836 F16.19
X57.19 Y-64.772 Z-2.233 B10.284 C-96.005 F18.98
X59.626 Y-64.972 Z-2.235 B10.3 C-98.172 F19.07
X62.038 Y-65.083 Z-2.24 B10.331 C-100.328 F19.22
X64.291 Y-65.112 Z-2.238 B10.319 C-102.294 F20.86
X66.53 Y-65.066 C-104.263 F20.9
X68.749 Y-64.948 Z-2.24 B10.331 C-106.229 F20.99
X71.221 Y-64.699 Z-2.235 B10.3 C-108.386 F18.97
X73.675 Y-64.36 Z-2.233 B10.284 C-110.552 F18.95
X76.101 Y-63.934 Z-2.234 B10.282 C-112.722 F18.99
X78.958 Y-63.301 Z-2.23 B10.262 C-115.277 F16.06
X81.767 Y-62.55 C-117.838 F16.09
X84.511 Y-61.69 Z-2.234 B10.282 C-120.393 F16.19
X86.831 Y-60.854 Z-2.233 B10.284 C-122.563 F18.98
X89.098 Y-59.944 Z-2.236 B10.3 C-124.729 F19.08
X91.306 Y-58.966 Z-2.24 B10.331 C-126.885 F19.22
X93.332 Y-57.984 Z-2.238 B10.319 C-128.852 F20.86
X95.314 Y-56.942 C-130.82 F20.91
X97.245 Y-55.845 Z-2.24 B10.331 C-132.787 F21.
X99.284 Y-54.561 Z-2.236 B10.303 C-134.879 F19.56
X101.269 Y-53.21 Z-2.234 B10.287 C-136.979 F19.55
X103.195 Y-51.798 Z-2.235 B10.286 C-139.083 F19.58
X105.242 Y-50.161 Z-2.232 B10.272 C-141.375 F17.92
X107.212 Y-48.458 B10.274 C-143.67 F17.96
X109.096 Y-46.697 Z-2.236 B10.292 C-145.96 F18.06
X110.947 Y-44.826 Z-2.232 B10.272 C-148.255 F17.87
X112.713 Y-42.895 B10.269 C-150.554 F17.9
X114.389 Y-40.916 Z-2.234 B10.282 C-152.852 F17.98
X115.898 Y-38.966 Z-2.233 B10.284 C-155.022 F18.98
X117.323 Y-36.981 Z-2.236 B10.3 C-157.188 F19.07
X118.661 Y-34.97 Z-2.24 B10.331 C-159.344 F19.22
X118.895 Y-34.602 B10.328 C-159.724 F107.93
X119.844 Y-33.054 Z-2.238 B10.319 C-161.311 F25.85
X120.957 Y-31.11 C-163.279 F20.9
X121.998 Y-29.148 Z-2.24 B10.331 C-165.246 F20.99
X123.057 Y-26.9 Z-2.236 B10.3 C-167.402 F18.97
X124.029 Y-24.622 Z-2.234 B10.284 C-169.568 F18.95
X124.913 Y-22.323 B10.282 C-171.738 F18.99
X125.841 Y-19.548 Z-2.23 B10.262 C-174.294 F16.06
X126.643 Y-16.754 C-176.854 F16.1
X127.318 Y-13.958 Z-2.234 B10.282 C-179.409 F16.19
X127.797 Y-11.54 Z-2.233 B10.284 C-181.579 F18.98
X128.184 Y-9.128 Z-2.235 B10.3 C-183.745 F19.08
X128.481 Y-6.732 Z-2.24 B10.331 C-185.902 F19.22
X128.684 Y-4.489 Z-2.238 B10.319 C-187.868 F20.86
X128.811 Y-2.254 C-189.837 F20.91
X128.865 Y-0.034 Z-2.24 B10.331 C-191.803 F21.
X128.834 Y2.219 Z-2.238 B10.319 C-193.77 F20.86
X128.731 Y4.457 C-195.738 F20.9
X128.555 Y6.672 Z-2.24 B10.331 C-197.705 F20.99
X128.256 Y9.063 Z-2.236 B10.303 C-199.797 F19.55
X127.874 Y11.435 Z-2.234 B10.287 C-201.897 F19.54
X127.41 Y13.779 Z-2.235 B10.286 C-204.001 F19.58
X126.704 Y16.617 Z-2.231 B10.264 C-206.555 F16.07
X125.882 Y19.404 Z-2.23 B10.263 C-209.115 F16.1
X124.95 Y22.125 Z-2.234 B10.281 C-211.671 F16.19
X124.04 Y24.5 Z-2.233 B10.283 C-213.907 F18.41
X123.052 Y26.818 Z-2.235 B10.299 C-216.139 F18.51
X121.993 Y29.07 Z-2.24 B10.331 C-218.361 F18.65
X120.96 Y31.071 Z-2.238 B10.319 C-220.327 F20.86
X119.867 Y33.026 C-222.296 F20.9
X118.721 Y34.928 Z-2.24 B10.331 C-224.262 F20.99
X117.385 Y36.933 Z-2.236 B10.303 C-226.354 F19.56
X115.983 Y38.884 Z-2.234 B10.287 C-228.455 F19.55
X114.521 Y40.773 Z-2.235 B10.286 C-230.558 F19.58
X112.887 Y42.719 Z-2.232 B10.274 C-232.781 F18.48
X111.193 Y44.59 Z-2.233 B10.277 C-235.005 F18.53
X109.448 Y46.38 Z-2.237 B10.295 C-237.225 F18.63
X107.76 Y47.99 Z-2.234 B10.281 C-239.261 F20.15
X106.028 Y49.533 B10.28 C-241.3 F20.19
X104.258 Y51.005 Z-2.236 B10.292 C-243.337 F20.27
X102.163 Y52.6 Z-2.232 B10.272 C-245.632 F17.86
X100.02 Y54.105 B10.269 C-247.931 F17.89
X97.84 Y55.514 Z-2.234 B10.282 C-250.229 F17.97
X95.711 Y56.761 Z-2.233 B10.284 C-252.399 F18.97
X93.557 Y57.919 Z-2.236 B10.3 C-254.565 F19.07
X91.39 Y58.988 Z-2.24 B10.331 C-256.721 F19.22
X89.336 Y59.916 Z-2.238 B10.319 C-258.688 F20.85
X87.264 Y60.77 C-260.657 F20.9
X85.182 Y61.551 Z-2.24 B10.331 C-262.623 F20.99
X82.765 Y62.303 Z-2.237 B10.309 C-264.833 F18.56
X80.331 Y62.962 B10.301 C-267.049 F18.57
X77.893 Y63.526 Z-2.239 B10.309 C-269.265 F18.63
X75.459 Y63.994 Z-2.244 B10.331 C-271.475 F18.74
X73.239 Y64.369 Z-2.24 B10.319 C-273.442 F20.86
X71.021 Y64.667 Z-2.239 C-275.411 F20.91
X68.812 Y64.892 Z-2.24 B10.331 C-277.377 F21.
X66.565 Y65.036 Z-2.238 B10.319 C-279.343 F20.86
X64.327 Y65.106 C-281.312 F20.9
X62.105 Y65.102 Z-2.24 B10.331 C-283.279 F20.99
X59.624 Y64.981 Z-2.235 B10.3 C-285.435 F18.97
X57.157 Y64.769 Z-2.233 B10.284 C-287.601 F18.96
X54.712 Y64.469 Z-2.234 B10.282 C-289.771 F18.99
X52.116 Y64.053 Z-2.232 B10.269 C-292.069 F17.87
X49.556 Y63.54 B10.272 C-294.368 F17.92
X47.043 Y62.935 Z-2.236 B10.292 C-296.663 F18.02
X44.525 Y62.201 Z-2.232 B10.274 C-298.953 F17.92
X42.052 Y61.375 B10.272 C-301.248 F17.95
X39.634 Y60.464 Z-2.234 B10.286 C-303.54 F18.03
X37.429 Y59.535 B10.287 C-305.644 F19.57
X35.277 Y58.54 Z-2.236 B10.303 C-307.744 F19.66
X33.185 Y57.482 Z-2.24 B10.331 C-309.836 F19.81
X31.211 Y56.397 Z-2.238 B10.319 C-311.803 F20.86
X29.285 Y55.254 C-313.771 F20.9
X27.412 Y54.059 Z-2.24 B10.331 C-315.738 F20.99
X25.383 Y52.625 Z-2.235 B10.3 C-317.894 F18.97
X23.414 Y51.121 Z-2.233 B10.284 C-320.06 F18.95
X21.512 Y49.556 Z-2.234 B10.282 C-322.23 F18.99
X19.338 Y47.597 Z-2.23 B10.262 C-324.785 F16.06
X17.264 Y45.561 C-327.346 F16.09
X15.299 Y43.46 Z-2.234 B10.282 C-329.901 F16.19
X13.692 Y41.591 Z-2.233 B10.284 C-332.071 F18.98
X12.167 Y39.682 Z-2.236 B10.3 C-334.237 F19.08
X10.728 Y37.743 Z-2.24 B10.331 C-336.393 F19.22
X9.448 Y35.891 Z-2.238 B10.319 C-338.36 F20.86
X8.236 Y34.008 C-340.329 F20.91
X7.096 Y32.102 Z-2.24 B10.331 C-342.295 F21.
X5.954 Y29.981 Z-2.236 B10.303 C-344.387 F19.56
X4.892 Y27.827 Z-2.234 B10.287 C-346.487 F19.55
X3.912 Y25.65 Z-2.235 B10.286 C-348.591 F19.58
X2.936 Y23.217 Z-2.232 B10.272 C-350.883 F17.92
X2.061 Y20.765 B10.274 C-353.178 F17.96
X1.288 Y18.305 Z-2.236 B10.292 C-355.468 F18.06
X0.657 Y16.056 Z-2.233 B10.279 C-357.505 F20.13
X0.108 Y13.801 C-359.544 F20.18
X-0.004 Y13.297 Z-2.234 B10.282 C-360. F90.56
(REWIND: TOOL IS RETRACTING DUE TO ROTARY AXES LIMITS.)
G94 Y13.624 Z-0.431 F500.
G0 C0.
X-0.004 Y13.624
Z-0.431
G1 Y13.297 Z-2.234 F250.
G93 X-0.361 Y11.547 Z-2.236 B10.292 C-1.581 F26.11
X-0.764 Y8.954 Z-2.232 B10.274 C-3.871 F17.91
X-1.064 Y6.363 B10.272 C-6.166 F17.95
X-1.263 Y3.785 Z-2.234 B10.286 C-8.458 F18.03
X-1.357 Y1.394 B10.287 C-10.562 F19.57
X-1.367 Y-0.978 Z-2.236 B10.303 C-12.662 F19.66
X-1.296 Y-3.322 Z-2.24 B10.331 C-14.754 F19.8
X-1.111 Y-5.8 Z-2.235 B10.3 C-16.91 F18.97
X-0.835 Y-8.261 Z-2.233 B10.284 C-19.076 F18.95
X-0.472 Y-10.698 Z-2.234 B10.282 C-21.246 F18.99
X0.012 Y-13.282 Z-2.232 B10.269 C-23.544 F17.87
X0.59 Y-15.828 B10.272 C-25.844 F17.92
X1.259 Y-18.325 Z-2.235 B10.292 C-28.139 F18.02
X2.057 Y-20.824 Z-2.232 B10.274 C-30.429 F17.91
X2.946 Y-23.276 B10.272 C-32.723 F17.95
X3.919 Y-25.671 Z-2.235 B10.286 C-35.015 F18.03
X4.904 Y-27.851 Z-2.234 B10.287 C-37.119 F19.57
X5.956 Y-29.976 Z-2.236 B10.303 C-39.22 F19.66
X7.067 Y-32.041 Z-2.24 B10.331 C-41.311 F19.81
X7.344 Y-32.529 Z-2.239 B10.327 C-41.8 F83.78
X8.203 Y-33.986 Z-2.238 B10.319 C-43.278 F27.77
X9.395 Y-35.883 C-45.247 F20.9
X10.639 Y-37.724 Z-2.24 B10.331 C-47.213 F20.99
X12.077 Y-39.658 Z-2.236 B10.303 C-49.305 F19.55
X12.755 Y-40.523 Z-2.235 B10.294 C-50.264 F42.76
G94 X12.71 Y-40.567 Z-2.237 F100.
G93 X13.416 Y-41.539 Z-2.304 B10.635 C-51.627 F33.28
X14.099 Y-42.459 Z-2.38 B11. C-52.974 F33.99
X14.775 Y-43.354 Z-2.469 B11.405 C-54.343 F33.72
X15.382 Y-44.154 Z-2.562 B11.811 C-55.606 F36.72
X15.883 Y-44.825 Z-2.646 B12.182 C-56.676 F43.35
X16.322 Y-45.421 Z-2.727 B12.537 C-57.63 F48.48
X17.154 Y-46.472 Z-2.892 B13.266 C-59.409 F25.98
X17.634 Y-46.951 B13.268 C-60.001 F67.92
X19.251 Y-48.504 Z-2.896 B13.283 C-61.967 F20.48
X20.956 Y-50.018 Z-2.892 B13.268 C-63.934 F20.32
X22.696 Y-51.466 C-65.902 F20.38
X24.465 Y-52.845 Z-2.896 B13.283 C-67.869 F20.47
X26.46 Y-54.252 Z-2.888 B13.247 C-69.961 F19.04
X28.493 Y-55.584 Z-2.885 B13.228 C-72.061 F19.05
X30.557 Y-56.835 B13.226 C-74.165 F19.09
X32.297 Y-57.801 Z-2.882 B13.21 C-75.883 F23.27
X34.054 Y-58.713 Z-2.881 B13.206 C-77.604 F23.32
X35.823 Y-59.568 Z-2.883 B13.214 C-79.325 F23.4
X37.6 Y-60.366 Z-2.887 B13.233 C-81.042 F23.51
X39.781 Y-61.275 Z-2.883 B13.217 C-83.079 F19.62
X41.975 Y-62.104 C-85.118 F19.67
X44.174 Y-62.853 Z-2.887 B13.233 C-87.155 F19.77
X46.089 Y-63.404 Z-2.882 B13.214 C-88.872 F23.27
X48.009 Y-63.898 Z-2.881 B13.206 C-90.592 F23.3
X49.93 Y-64.334 Z-2.882 B13.21 C-92.313 F23.37
X51.846 Y-64.713 Z-2.885 B13.226 C-94.032 F23.47
X54.231 Y-65.101 B13.228 C-96.135 F19.08
X56.603 Y-65.404 Z-2.888 B13.247 C-98.236 F19.19
X58.955 Y-65.623 Z-2.896 B13.283 C-100.328 F19.33
X61.23 Y-65.753 Z-2.892 B13.268 C-102.294 F20.32
X63.492 Y-65.808 C-104.263 F20.38
X65.734 Y-65.791 Z-2.896 B13.283 C-106.229 F20.48
X68.012 Y-65.686 Z-2.892 B13.268 C-108.196 F20.32
X70.268 Y-65.508 C-110.165 F20.38
X72.498 Y-65.261 Z-2.896 B13.283 C-112.131 F20.47
X74.908 Y-64.877 Z-2.888 B13.247 C-114.223 F19.04
X77.294 Y-64.411 Z-2.885 B13.228 C-116.323 F19.05
X79.645 Y-63.867 B13.226 C-118.427 F19.09
X81.565 Y-63.344 Z-2.882 B13.21 C-120.146 F23.27
X83.46 Y-62.771 Z-2.881 B13.206 C-121.867 F23.32
X85.324 Y-62.149 Z-2.883 B13.214 C-123.587 F23.4
X87.153 Y-61.48 Z-2.887 B13.233 C-125.304 F23.51
X89.349 Y-60.609 Z-2.883 B13.217 C-127.341 F19.62
X91.499 Y-59.671 C-129.38 F19.68
X93.597 Y-58.673 Z-2.887 B13.233 C-131.417 F19.77
X95.352 Y-57.731 Z-2.882 B13.214 C-133.134 F23.27
X97.072 Y-56.745 Z-2.881 B13.206 C-134.855 F23.3
X98.752 Y-55.717 Z-2.882 B13.21 C-136.576 F23.37
X100.389 Y-54.651 Z-2.885 B13.226 C-138.294 F23.48
X102.367 Y-53.264 B13.228 C-140.398 F19.08
X104.278 Y-51.825 Z-2.888 B13.247 C-142.498 F19.19
X106.116 Y-50.341 Z-2.896 B13.283 C-144.59 F19.33
X107.835 Y-48.846 Z-2.892 B13.268 C-146.557 F20.33
X109.493 Y-47.307 C-148.525 F20.38
X111.087 Y-45.73 Z-2.896 B13.283 C-150.492 F20.48
X112.644 Y-44.065 Z-2.892 B13.268 C-152.458 F20.32
X114.137 Y-42.363 C-154.427 F20.38
X115.56 Y-40.63 Z-2.896 B13.283 C-156.393 F20.47
X117.019 Y-38.673 Z-2.888 B13.247 C-158.485 F19.04
X117.612 Y-37.834 Z-2.886 B13.237 C-159.371 F45.13
X118.402 Y-36.674 Z-2.885 B13.228 C-160.586 F32.95
X119.706 Y-34.643 B13.226 C-162.69 F19.09
X120.716 Y-32.929 Z-2.882 B13.21 C-164.408 F23.28
X121.673 Y-31.197 Z-2.881 B13.206 C-166.129 F23.32
X122.573 Y-29.45 Z-2.883 B13.214 C-167.849 F23.4
X123.417 Y-27.695 Z-2.887 B13.233 C-169.566 F23.51
X124.382 Y-25.538 Z-2.883 B13.217 C-171.603 F19.62
X125.267 Y-23.366 C-173.643 F19.68
X126.072 Y-21.187 Z-2.887 B13.233 C-175.68 F19.77
X126.672 Y-19.287 Z-2.882 B13.214 C-177.397 F23.27
X127.215 Y-17.381 Z-2.881 B13.206 C-179.117 F23.3
X127.701 Y-15.472 Z-2.882 B13.21 C-180.838 F23.37
X128.129 Y-13.567 Z-2.885 B13.226 C-182.556 F23.48
X128.579 Y-11.193 B13.228 C-184.66 F19.09
X128.942 Y-8.829 Z-2.888 B13.247 C-186.761 F19.19
X129.222 Y-6.483 Z-2.896 B13.283 C-188.852 F19.33
X129.41 Y-4.213 Z-2.892 B13.268 C-190.819 F20.33
X129.524 Y-1.953 C-192.788 F20.38
X129.564 Y0.288 Z-2.896 B13.283 C-194.754 F20.48
X129.518 Y2.567 Z-2.892 B13.268 C-196.721 F20.32
X129.399 Y4.828 C-198.689 F20.38
X129.209 Y7.062 Z-2.896 B13.283 C-200.656 F20.47
X128.887 Y9.482 Z-2.888 B13.247 C-202.748 F19.04
X128.483 Y11.878 Z-2.885 B13.228 C-204.848 F19.05
X127.999 Y14.243 B13.226 C-206.952 F19.09
X127.545 Y16.117 Z-2.882 B13.212 C-208.618 F24.01
X127.043 Y17.968 B13.21 C-210.287 F24.06
X126.493 Y19.791 Z-2.884 B13.218 C-211.954 F24.14
X125.9 Y21.584 Z-2.888 B13.238 C-213.618 F24.26
X125.085 Y23.798 Z-2.884 B13.22 C-215.654 F19.63
X124.202 Y25.969 Z-2.883 B13.218 C-217.693 F19.68
X123.256 Y28.09 Z-2.887 B13.233 C-219.73 F19.78
X122.217 Y30.213 Z-2.883 B13.217 C-221.767 F19.62
X121.116 Y32.285 C-223.807 F19.67
X119.957 Y34.3 Z-2.887 B13.233 C-225.843 F19.77
X118.882 Y35.977 Z-2.882 B13.214 C-227.561 F23.27
X117.765 Y37.615 Z-2.881 B13.206 C-229.281 F23.3
X116.61 Y39.211 Z-2.882 B13.21 C-231.002 F23.37
X115.42 Y40.76 Z-2.885 B13.226 C-232.72 F23.47
X113.885 Y42.626 B13.228 C-234.824 F19.08
X112.302 Y44.421 Z-2.888 B13.247 C-236.925 F19.18
X110.68 Y46.139 Z-2.896 B13.283 C-239.016 F19.33
X109.057 Y47.738 Z-2.892 B13.268 C-240.983 F20.32
X107.394 Y49.274 C-242.952 F20.38
X105.698 Y50.742 Z-2.896 B13.283 C-244.918 F20.47
X103.917 Y52.166 Z-2.892 B13.268 C-246.885 F20.32
X102.104 Y53.522 C-248.853 F20.37
X100.266 Y54.808 Z-2.896 B13.283 C-250.82 F20.47
X98.201 Y56.111 Z-2.888 B13.247 C-252.912 F19.04
X96.102 Y57.335 Z-2.885 B13.228 C-255.012 F19.04
X93.975 Y58.478 B13.226 C-257.116 F19.09
X92.034 Y59.453 Z-2.884 B13.219 C-258.994 F21.31
X90.08 Y60.36 Z-2.885 B13.225 C-260.871 F21.39
X88.117 Y61.199 Z-2.89 B13.245 C-262.745 F21.5
X86.22 Y61.891 Z-2.886 B13.229 C-264.492 F22.91
X84.313 Y62.525 Z-2.885 B13.225 C-266.242 F22.95
X82.401 Y63.099 Z-2.887 B13.232 C-267.991 F23.02
X80.491 Y63.613 Z-2.892 B13.252 C-269.736 F23.14
X78.588 Y64.069 Z-2.899 B13.283 C-271.475 F23.29
X76.526 Y64.494 Z-2.892 B13.254 C-273.283 F22.06
X74.461 Y64.855 Z-2.888 B13.237 C-275.097 F22.06
X72.397 Y65.153 Z-2.887 B13.233 C-276.913 F22.11
X70.342 Y65.386 Z-2.889 B13.242 C-278.729 F22.19
X68.603 Y65.566 B13.247 C-280.248 F26.4
X66.873 Y65.702 Z-2.891 B13.26 C-281.766 F26.51
X65.157 Y65.795 Z-2.896 B13.283 C-283.279 F26.66
X62.878 Y65.807 Z-2.892 B13.268 C-285.245 F20.32
X60.616 Y65.745 C-287.214 F20.38
X58.377 Y65.613 Z-2.896 B13.283 C-289.18 F20.47
X56.108 Y65.39 Z-2.892 B13.268 C-291.147 F20.32
X53.863 Y65.097 C-293.115 F20.38
X51.649 Y64.734 Z-2.896 B13.283 C-295.082 F20.47
X49.261 Y64.227 Z-2.888 B13.247 C-297.174 F19.04
X46.903 Y63.639 Z-2.885 B13.228 C-299.274 F19.04
X44.582 Y62.974 B13.226 C-301.378 F19.09
X42.691 Y62.353 Z-2.882 B13.21 C-303.097 F23.27
X40.829 Y61.683 Z-2.881 B13.206 C-304.817 F23.32
X38.999 Y60.965 Z-2.883 B13.214 C-306.538 F23.4
X37.206 Y60.203 Z-2.887 B13.233 C-308.255 F23.51
X35.057 Y59.22 Z-2.883 B13.217 C-310.292 F19.62
X32.958 Y58.172 C-312.331 F19.67
X30.914 Y57.067 Z-2.887 B13.233 C-314.368 F19.77
X29.209 Y56.036 Z-2.882 B13.214 C-316.085 F23.27
X27.542 Y54.962 Z-2.881 B13.206 C-317.806 F23.3
X25.917 Y53.849 Z-2.882 B13.21 C-319.526 F23.37
X24.337 Y52.7 Z-2.885 B13.226 C-321.245 F23.47
X22.432 Y51.213 B13.228 C-323.349 F19.08
X20.598 Y49.677 Z-2.888 B13.247 C-325.449 F19.18
X18.839 Y48.1 Z-2.896 B13.283 C-327.541 F19.33
X17.199 Y46.518 Z-2.892 B13.268 C-329.507 F20.32
X15.622 Y44.895 C-331.476 F20.38
X14.111 Y43.238 Z-2.896 B13.283 C-333.443 F20.48
X12.641 Y41.495 Z-2.892 B13.268 C-335.409 F20.32
X11.239 Y39.718 C-337.378 F20.38
X9.906 Y37.913 Z-2.896 B13.283 C-339.344 F20.47
X8.55 Y35.883 Z-2.888 B13.247 C-341.436 F19.04
X7.271 Y33.816 Z-2.885 B13.228 C-343.537 F19.04
X6.074 Y31.72 B13.226 C-345.64 F19.09
X5.152 Y29.956 Z-2.882 B13.21 C-347.359 F23.27
X4.286 Y28.176 Z-2.881 B13.206 C-349.08 F23.32
X3.477 Y26.385 Z-2.883 B13.214 C-350.8 F23.4
X2.725 Y24.588 Z-2.887 B13.233 C-352.517 F23.51
X1.872 Y22.384 Z-2.883 B13.217 C-354.554 F19.62
X1.1 Y20.169 C-356.593 F19.67
X0.408 Y17.951 Z-2.887 B13.233 C-358.63 F19.77
X-0.006 Y16.419 Z-2.884 B13.223 C-360. F29.19
(REWIND: TOOL IS RETRACTING DUE TO ROTARY AXES LIMITS.)
G94 Y16.852 Z-1.038 F500.
G0 C0.
X-0.006 Y16.852
Z-1.038
G1 Y16.419 Z-2.884 F250.
G93 X-0.194 Y15.669 Z-2.883 B13.218 C-0.667 F59.94
X-0.715 Y13.386 Z-2.884 B13.22 C-2.706 F19.69
X-1.156 Y11.108 Z-2.888 B13.238 C-4.742 F19.79
X-1.444 Y9.197 Z-2.884 B13.218 C-6.407 F24.
X-1.677 Y7.287 Z-2.882 B13.21 C-8.074 F24.03
X-1.857 Y5.384 B13.212 C-9.742 F24.09
X-1.984 Y3.491 Z-2.885 B13.226 C-11.409 F24.19
X-2.062 Y1.075 B13.228 C-13.513 F19.08
X-2.058 Y-1.318 Z-2.888 B13.247 C-15.613 F19.18
X-1.974 Y-3.68 Z-2.896 B13.283 C-17.705 F19.33
X-1.81 Y-5.953 Z-2.892 B13.268 C-19.671 F20.32
X-1.574 Y-8.205 C-21.64 F20.38
X-1.269 Y-10.427 Z-2.896 B13.283 C-23.607 F20.47
X-0.872 Y-12.673 Z-2.892 B13.268 C-25.573 F20.32
X-0.405 Y-14.889 C-27.542 F20.37
X0.128 Y-17.069 Z-2.896 B13.283 C-29.508 F20.47
X0.845 Y-19.483 Z-2.888 B13.244 C-31.665 F18.47
X1.646 Y-21.858 Z-2.884 B13.223 C-33.831 F18.47
X2.525 Y-24.188 B13.22 C-36.001 F18.51
X3.263 Y-25.977 Z-2.881 B13.208 C-37.671 F23.93
X4.047 Y-27.735 B13.207 C-39.344 F23.99
X4.871 Y-29.458 Z-2.883 B13.217 C-41.015 F24.08
X5.734 Y-31.143 Z-2.888 B13.238 C-42.682 F24.2
X6.722 Y-32.876 Z-2.883 B13.217 C-44.402 F23.24
X7.754 Y-34.572 Z-2.881 B13.208 C-46.125 F23.26
X8.828 Y-36.228 Z-2.882 B13.211 C-47.85 F23.33
X9.939 Y-37.839 Z-2.885 B13.225 C-49.572 F23.43
X11.186 Y-39.554 Z-2.884 C-51.415 F21.76
X11.412 Y-39.852 B13.226 C-51.742 F123.16
X12.939 Y-41.792 Z-2.888 B13.245 C-53.908 F18.6
X14.513 Y-43.652 Z-2.896 B13.283 C-56.066 F18.74
X16.052 Y-45.333 Z-2.892 B13.268 C-58.032 F20.32
X17.154 Y-46.472 B13.266 C-59.409 F29.12
G94 X17.116 Y-46.522 Z-2.894 F100.
G93 X17.882 Y-47.286 Z-2.895 B13.248 C-60.353 F42.57
X18.693 Y-48.065 Z-2.9 B13.233 C-61.348 F40.64
X19.582 Y-48.881 Z-2.91 B13.221 C-62.432 F37.56
X20.476 Y-49.672 Z-2.92 B13.214 C-63.508 F37.91
X21.301 Y-50.385 Z-2.928 B13.211 C-64.486 F41.63
X22.1 Y-51.057 Z-2.934 B13.212 C-65.412 F43.72
X23.795 Y-52.336 Z-2.938 B13.224 C-67.286 F21.56
X25.386 Y-53.523 Z-2.941 B13.238 C-69.028 F23.13
X27.262 Y-54.818 Z-2.938 B13.223 C-70.995 F20.33
X29.166 Y-56.043 C-72.963 F20.38
X31.09 Y-57.195 Z-2.941 B13.238 C-74.93 F20.48
X33.089 Y-58.291 Z-2.938 B13.223 C-76.896 F20.33
X35.109 Y-59.314 C-78.865 F20.38
X37.142 Y-60.263 Z-2.941 B13.238 C-80.831 F20.48
X39.321 Y-61.173 Z-2.937 B13.22 C-82.867 F19.63
X41.515 Y-62.003 B13.218 C-84.906 F19.68
X43.714 Y-62.752 Z-2.94 B13.233 C-86.943 F19.77
X45.978 Y-63.436 Z-2.936 B13.217 C-88.98 F19.61
X48.247 Y-64.04 C-91.02 F19.67
X50.513 Y-64.563 Z-2.94 B13.233 C-93.057 F19.76
X52.834 Y-64.991 Z-2.937 B13.218 C-95.094 F19.63
X55.152 Y-65.338 B13.22 C-97.133 F19.68
X57.457 Y-65.606 Z-2.941 B13.238 C-99.169 F19.79
X59.386 Y-65.749 Z-2.937 B13.218 C-100.833 F23.99
X61.308 Y-65.837 Z-2.935 B13.21 C-102.5 F24.02
X63.22 Y-65.872 B13.212 C-104.169 F24.09
X65.117 Y-65.856 Z-2.938 B13.226 C-105.835 F24.19
X67.533 Y-65.751 B13.228 C-107.939 F19.08
X69.919 Y-65.566 Z-2.941 B13.247 C-110.039 F19.18
X72.268 Y-65.304 Z-2.949 B13.283 C-112.131 F19.33
X74.523 Y-64.969 Z-2.946 B13.268 C-114.098 F20.32
X76.75 Y-64.565 C-116.066 F20.38
X78.943 Y-64.093 Z-2.949 B13.283 C-118.033 F20.47
X81.152 Y-63.528 Z-2.946 B13.268 C-119.999 F20.32
X83.326 Y-62.896 C-121.968 F20.37
X85.459 Y-62.201 Z-2.949 B13.283 C-123.934 F20.47
X87.599 Y-61.412 Z-2.946 B13.268 C-125.901 F20.32
X89.697 Y-60.56 C-127.87 F20.37
X91.748 Y-59.649 Z-2.949 B13.283 C-129.836 F20.47
X93.795 Y-58.643 Z-2.946 B13.268 C-131.803 F20.32
X95.795 Y-57.579 C-133.771 F20.37
X97.741 Y-56.462 Z-2.949 B13.283 C-135.738 F20.47
X99.675 Y-55.251 Z-2.946 B13.268 C-137.704 F20.31
X101.555 Y-53.987 C-139.673 F20.37
X103.376 Y-52.676 Z-2.949 B13.283 C-141.639 F20.47
X105.289 Y-51.157 Z-2.941 B13.247 C-143.731 F19.04
X107.139 Y-49.579 Z-2.938 B13.228 C-145.832 F19.04
X108.92 Y-47.948 B13.226 C-147.935 F19.09
X110.296 Y-46.596 Z-2.935 B13.212 C-149.602 F24.
X111.627 Y-45.213 B13.21 C-151.27 F24.05
X112.91 Y-43.805 Z-2.937 B13.218 C-152.938 F24.14
X114.144 Y-42.375 Z-2.941 B13.238 C-154.602 F24.26
X115.58 Y-40.605 Z-2.938 B13.223 C-156.568 F20.33
X116.948 Y-38.803 C-158.537 F20.38
X117.699 Y-37.76 Z-2.939 B13.229 C-159.662 F35.78
X118.246 Y-36.974 Z-2.941 B13.238 C-160.504 F47.91
X119.532 Y-34.994 Z-2.937 B13.22 C-162.54 F19.63
X120.741 Y-32.985 B13.218 C-164.579 F19.68
X121.873 Y-30.956 Z-2.94 B13.233 C-166.616 F19.77
X122.951 Y-28.852 Z-2.936 B13.217 C-168.652 F19.61
X123.952 Y-26.729 C-170.692 F19.67
X124.872 Y-24.595 Z-2.94 B13.233 C-172.729 F19.77
X125.71 Y-22.388 Z-2.937 B13.218 C-174.766 F19.63
X126.467 Y-20.171 B13.22 C-176.805 F19.69
X127.144 Y-17.952 Z-2.941 B13.238 C-178.841 F19.79
X127.726 Y-15.747 Z-2.938 B13.223 C-180.807 F20.32
X128.233 Y-13.54 C-182.776 F20.38
X128.665 Y-11.338 Z-2.941 B13.238 C-184.742 F20.48
X129.018 Y-9.084 Z-2.938 B13.223 C-186.709 F20.32
X129.296 Y-6.836 C-188.678 F20.38
X129.5 Y-4.601 Z-2.941 B13.238 C-190.644 F20.47
X129.618 Y-2.322 Z-2.938 B13.223 C-192.61 F20.32
X129.663 Y-0.057 C-194.579 F20.38
X129.635 Y2.187 Z-2.941 B13.238 C-196.546 F20.47
X129.529 Y4.118 Z-2.937 B13.218 C-198.21 F23.99
X129.37 Y6.037 Z-2.935 B13.21 C-199.877 F24.02
X129.16 Y7.938 B13.212 C-201.546 F24.08
X128.9 Y9.819 Z-2.939 B13.226 C-203.212 F24.18
X128.486 Y12.201 Z-2.938 B13.228 C-205.316 F19.08
X127.996 Y14.544 Z-2.942 B13.247 C-207.416 F19.18
X127.434 Y16.84 Z-2.949 B13.283 C-209.508 F19.33
X126.811 Y19.034 Z-2.946 B13.268 C-211.475 F20.32
X126.124 Y21.191 C-213.443 F20.37
X125.374 Y23.305 Z-2.949 B13.283 C-215.41 F20.47
X124.53 Y25.424 Z-2.946 B13.268 C-217.376 F20.32
X123.624 Y27.5 C-219.345 F20.37
X122.661 Y29.526 Z-2.949 B13.283 C-221.311 F20.47
X121.603 Y31.547 Z-2.946 B13.268 C-223.278 F20.31
X120.487 Y33.519 C-225.247 F20.37
X119.32 Y35.436 Z-2.949 B13.283 C-227.213 F20.47
X118.06 Y37.338 Z-2.946 B13.268 C-229.18 F20.31
X116.748 Y39.185 C-231.148 F20.37
X115.39 Y40.972 Z-2.949 B13.283 C-233.115 F20.47
X113.822 Y42.845 Z-2.941 B13.247 C-235.207 F19.04
X112.197 Y44.653 Z-2.938 B13.228 C-237.307 F19.04
X110.521 Y46.392 B13.226 C-239.411 F19.09
X109.133 Y47.733 Z-2.935 B13.212 C-241.077 F24.
X107.717 Y49.028 B13.21 C-242.746 F24.05
X106.276 Y50.274 Z-2.937 B13.218 C-244.413 F24.14
X104.815 Y51.471 Z-2.941 B13.238 C-246.077 F24.26
X103.009 Y52.861 Z-2.938 B13.223 C-248.044 F20.33
X101.171 Y54.183 C-250.012 F20.38
X99.31 Y55.433 Z-2.941 B13.238 C-251.979 F20.48
X97.369 Y56.63 Z-2.938 B13.223 C-253.945 F20.33
X95.405 Y57.755 C-255.914 F20.38
X93.424 Y58.806 Z-2.941 B13.238 C-257.881 F20.48
X91.741 Y59.65 Z-2.94 B13.23 C-259.502 F24.63
X90.047 Y60.443 B13.233 C-261.125 F24.7
X88.347 Y61.186 Z-2.943 B13.245 C-262.745 F24.81
X86.449 Y61.881 Z-2.939 B13.229 C-264.492 F22.9
X84.542 Y62.517 B13.225 C-266.242 F22.94
X82.631 Y63.093 Z-2.941 B13.232 C-267.991 F23.02
X80.721 Y63.611 Z-2.945 B13.252 C-269.736 F23.13
X78.817 Y64.069 Z-2.953 B13.283 C-271.475 F23.29
X76.379 Y64.584 Z-2.946 B13.255 C-273.617 F18.62
X73.939 Y65.01 Z-2.943 B13.245 C-275.765 F18.65
X71.506 Y65.346 Z-2.945 B13.253 C-277.914 F18.72
X69.59 Y65.561 Z-2.94 B13.233 C-279.568 F24.1
X67.679 Y65.723 Z-2.938 B13.224 C-281.226 F24.13
X65.776 Y65.833 B13.226 C-282.884 F24.2
X63.359 Y65.853 B13.228 C-284.988 F19.08
X60.966 Y65.791 Z-2.941 B13.247 C-287.089 F19.18
X58.607 Y65.65 Z-2.949 B13.283 C-289.18 F19.33
X56.338 Y65.432 Z-2.946 B13.268 C-291.147 F20.32
X54.093 Y65.143 C-293.116 F20.38
X51.879 Y64.785 Z-2.949 B13.283 C-295.082 F20.47
X49.644 Y64.334 Z-2.946 B13.268 C-297.048 F20.32
X47.44 Y63.815 C-299.017 F20.38
X45.275 Y63.231 Z-2.949 B13.283 C-300.984 F20.47
X43.097 Y62.553 Z-2.946 B13.268 C-302.95 F20.32
X40.958 Y61.81 C-304.919 F20.37
X38.864 Y61.006 Z-2.949 B13.283 C-306.885 F20.47
X36.767 Y60.108 Z-2.946 B13.268 C-308.852 F20.32
X34.716 Y59.148 C-310.82 F20.37
X32.715 Y58.133 Z-2.949 B13.283 C-312.787 F20.47
X30.722 Y57.023 Z-2.946 B13.268 C-314.753 F20.31
X28.779 Y55.858 C-316.722 F20.37
X26.892 Y54.642 Z-2.949 B13.283 C-318.689 F20.47
X24.904 Y53.223 Z-2.941 B13.247 C-320.78 F19.04
X22.976 Y51.743 Z-2.938 B13.228 C-322.881 F19.04
X21.113 Y50.207 B13.226 C-324.985 F19.09
X19.669 Y48.927 Z-2.935 B13.212 C-326.651 F24.
X18.269 Y47.615 B13.21 C-328.319 F24.05
X16.916 Y46.275 Z-2.937 B13.218 C-329.987 F24.14
X15.61 Y44.91 Z-2.941 B13.238 C-331.651 F24.26
X14.085 Y43.217 Z-2.938 B13.223 C-333.618 F20.33
X12.625 Y41.487 C-335.586 F20.39
X11.235 Y39.728 Z-2.941 B13.238 C-337.553 F20.48
X9.892 Y37.886 Z-2.938 B13.223 C-339.519 F20.33
X8.619 Y36.015 C-341.488 F20.38
X7.418 Y34.121 Z-2.941 B13.238 C-343.454 F20.48
X6.235 Y32.077 Z-2.937 B13.22 C-345.49 F19.63
X5.13 Y30.009 B13.218 C-347.529 F19.68
X4.104 Y27.925 Z-2.94 B13.233 C-349.566 F19.77
X3.135 Y25.768 Z-2.936 B13.217 C-351.603 F19.61
X2.245 Y23.596 C-353.643 F19.67
X1.435 Y21.416 Z-2.94 B13.233 C-355.68 F19.77
X0.713 Y19.169 Z-2.937 B13.218 C-357.717 F19.63
X0.072 Y16.916 B13.22 C-359.756 F19.69
X0. Y16.647 Z-2.938 B13.222 C-360. F164.74
(REWIND: TOOL IS RETRACTING DUE TO ROTARY AXES LIMITS.)
G94 Y17.093 Z-1.038 F500.
G0 C0.
X0. Y17.093
Z-1.038
G1 Y16.647 Z-2.938 F250.
G93 X-0.489 Y14.665 Z-2.941 B13.238 C-1.792 F22.49
X-0.957 Y12.433 Z-2.938 B13.223 C-3.758 F20.32
X-1.351 Y10.202 C-5.727 F20.38
X-1.67 Y7.98 Z-2.941 B13.238 C-7.693 F20.47
X-1.861 Y6.056 Z-2.937 B13.218 C-9.357 F24.
X-1.999 Y4.137 Z-2.935 B13.21 C-11.025 F24.02
X-2.084 Y2.226 B13.212 C-12.693 F24.09
X-2.116 Y0.329 Z-2.938 B13.226 C-14.36 F24.19
X-2.074 Y-2.088 B13.228 C-16.463 F19.08
X-1.95 Y-4.478 Z-2.941 B13.247 C-18.564 F19.18
X-1.749 Y-6.833 Z-2.949 B13.283 C-20.656 F19.33
X-1.485 Y-9.034 Z-2.943 B13.251 C-22.551 F20.99
X-1.154 Y-11.217 Z-2.94 B13.233 C-24.454 F21.
X-0.757 Y-13.375 B13.229 C-26.36 F21.04
X-0.235 Y-15.659 Z-2.939 B13.231 C-28.398 F19.69
X0.357 Y-17.903 Z-2.942 B13.249 C-30.432 F19.79
X1.013 Y-20.099 Z-2.949 B13.283 C-32.459 F19.94
X1.747 Y-22.258 Z-2.946 B13.268 C-34.425 F20.32
X2.545 Y-24.377 C-36.394 F20.37
X3.402 Y-26.451 Z-2.949 B13.283 C-38.361 F20.47
X4.355 Y-28.523 Z-2.946 B13.268 C-40.327 F20.32
X5.367 Y-30.549 C-42.296 F20.37
X6.433 Y-32.524 Z-2.949 B13.283 C-44.262 F20.47
X7.594 Y-34.488 Z-2.946 B13.268 C-46.229 F20.31
X8.809 Y-36.4 C-48.197 F20.37
X10.073 Y-38.255 Z-2.949 B13.283 C-50.164 F20.47
X11.543 Y-40.205 Z-2.941 B13.247 C-52.256 F19.04
X13.072 Y-42.095 Z-2.938 B13.228 C-54.356 F19.04
X14.656 Y-43.918 B13.226 C-56.46 F19.09
X15.973 Y-45.328 Z-2.935 B13.212 C-58.126 F24.
X17.019 Y-46.395 B13.21 C-59.425 F30.9
X17.321 Y-46.694 C-59.795 F108.52
X18.695 Y-48.013 Z-2.937 B13.218 C-61.462 F24.14
X20.093 Y-49.283 Z-2.941 B13.238 C-63.126 F24.26
X21.825 Y-50.764 Z-2.938 B13.223 C-65.093 F20.33
X23.592 Y-52.179 C-67.062 F20.38
X23.795 Y-52.336 B13.224 C-67.286 F178.96
G94 X23.763 Y-52.391 Z-2.94 F100.
G93 X24.459 Y-52.933 Z-2.943 B13.217 C-68.064 F51.93
X25.186 Y-53.482 Z-2.951 B13.212 C-68.881 F49.8
X25.975 Y-54.053 Z-2.963 B13.21 C-69.767 F46.25
X26.762 Y-54.606 Z-2.976 B13.211 C-70.645 F46.71
X27.489 Y-55.107 Z-2.986 B13.215 C-71.444 F51.11
X28.194 Y-55.583 Z-2.992 B13.221 C-72.203 F53.52
X29.679 Y-56.471 Z-2.998 B13.239 C-73.737 F26.39
X30.798 Y-57.137 Z-3. B13.248 C-74.877 F35.29
X32.797 Y-58.238 Z-2.997 B13.233 C-76.844 F20.32
X34.816 Y-59.267 C-78.813 F20.37
X36.848 Y-60.221 Z-3.001 B13.248 C-80.779 F20.47
X39.039 Y-61.142 Z-2.996 B13.23 C-82.827 F19.51
X41.245 Y-61.983 B13.228 C-84.877 F19.56
X43.457 Y-62.742 Z-2.999 B13.242 C-86.926 F19.65
X45.734 Y-63.434 Z-2.995 B13.226 C-88.974 F19.49
X48.016 Y-64.044 C-91.026 F19.55
X50.295 Y-64.574 Z-2.999 B13.242 C-93.074 F19.65
X52.63 Y-65.006 Z-2.996 B13.228 C-95.123 F19.51
X54.96 Y-65.357 B13.23 C-97.173 F19.57
X57.278 Y-65.627 Z-3. B13.248 C-99.221 F19.68
X59.552 Y-65.807 Z-2.997 B13.233 C-101.187 F20.32
X61.816 Y-65.913 C-103.156 F20.37
X64.06 Y-65.946 Z-3. B13.248 C-105.123 F20.47
X66.341 Y-65.89 Z-2.997 B13.233 C-107.089 F20.32
X68.603 Y-65.762 C-109.058 F20.37
X70.839 Y-65.563 Z-3. B13.248 C-111.024 F20.47
X73.102 Y-65.274 Z-2.997 B13.233 C-112.991 F20.32
X75.339 Y-64.915 C-114.959 F20.37
X77.543 Y-64.488 Z-3. B13.248 C-116.926 F20.47
X79.764 Y-63.967 Z-2.997 B13.233 C-118.892 F20.32
X81.952 Y-63.379 C-120.861 F20.37
X84.1 Y-62.727 Z-3. B13.248 C-122.828 F20.47
X86.256 Y-61.981 Z-2.997 B13.233 C-124.794 F20.32
X88.373 Y-61.172 C-126.763 F20.37
X90.443 Y-60.303 Z-3. B13.248 C-128.729 F20.47
X92.51 Y-59.339 Z-2.997 B13.233 C-130.696 F20.32
X94.532 Y-58.315 C-132.664 F20.37
X96.501 Y-57.238 Z-3. B13.248 C-134.631 F20.47
X98.459 Y-56.067 Z-2.997 B13.233 C-136.597 F20.32
X100.365 Y-54.842 C-138.566 F20.37
X102.213 Y-53.568 Z-3. B13.248 C-140.532 F20.47
X104.04 Y-52.201 Z-2.997 B13.233 C-142.499 F20.32
X105.809 Y-50.786 C-144.468 F20.37
X107.516 Y-49.328 Z-3. B13.248 C-146.434 F20.47
X109.194 Y-47.781 Z-2.997 B13.233 C-148.401 F20.32
X110.809 Y-46.192 C-150.369 F20.37
X112.358 Y-44.567 Z-3. B13.248 C-152.336 F20.47
X113.866 Y-42.856 Z-2.997 B13.233 C-154.302 F20.32
X115.308 Y-41.109 C-156.271 F20.37
X116.681 Y-39.333 Z-3. B13.248 C-158.237 F20.47
X117.376 Y-38.375 Z-2.998 B13.238 C-159.256 F39.2
X118.006 Y-37.476 Z-2.997 B13.233 C-160.204 F42.18
X119.262 Y-35.59 C-162.173 F20.37
X120.446 Y-33.682 Z-3. B13.248 C-164.139 F20.47
X121.573 Y-31.698 Z-2.997 B13.233 C-166.105 F20.32
X122.627 Y-29.693 C-168.074 F20.37
X123.607 Y-27.674 Z-3. B13.248 C-170.041 F20.47
X124.525 Y-25.585 Z-2.997 B13.233 C-172.007 F20.32
X125.369 Y-23.482 C-173.976 F20.37
X126.137 Y-21.373 Z-3. B13.248 C-175.942 F20.47
X126.834 Y-19.2 Z-2.997 B13.233 C-177.909 F20.32
X127.456 Y-17.022 C-179.877 F20.37
X128.003 Y-14.845 Z-3. B13.248 C-181.844 F20.47
X128.461 Y-12.707 Z-2.998 B13.236 C-183.729 F21.19
X128.85 Y-10.57 B13.238 C-185.616 F21.26
X129.171 Y-8.443 Z-3.002 B13.253 C-187.5 F21.36
X129.407 Y-6.176 Z-2.998 B13.236 C-189.466 F20.33
X129.568 Y-3.918 Z-2.997 B13.234 C-191.434 F20.38
X129.656 Y-1.676 Z-3. B13.248 C-193.401 F20.47
X129.687 Y0.516 Z-2.997 B13.234 C-195.286 F21.17
X129.651 Y2.692 C-197.173 F21.23
X129.549 Y4.847 Z-3. B13.248 C-199.058 F21.33
X129.311 Y7.207 Z-2.997 B13.231 C-201.106 F19.53
X128.995 Y9.541 C-203.156 F19.58
X128.605 Y11.841 Z-3. B13.248 C-205.204 F19.68
X128.162 Y14.084 Z-2.996 B13.231 C-207.17 F20.3
X127.649 Y16.297 B13.229 C-209.139 F20.35
X127.071 Y18.471 Z-2.999 B13.242 C-211.107 F20.44
X126.391 Y20.647 Z-2.996 B13.231 C-213.074 F20.32
X125.647 Y22.783 Z-2.997 B13.234 C-215.043 F20.39
X124.842 Y24.874 Z-3.001 B13.253 C-217.008 F20.5
X123.977 Y26.88 Z-2.998 B13.239 C-218.893 F21.21
X123.056 Y28.845 C-220.779 F21.27
X122.083 Y30.763 Z-3.001 B13.253 C-222.664 F21.36
X120.977 Y32.761 Z-2.997 B13.234 C-224.629 F20.31
X119.814 Y34.71 Z-2.996 B13.231 C-226.598 F20.36
X118.6 Y36.603 Z-2.999 B13.242 C-228.565 F20.45
X117.244 Y38.559 Z-2.995 B13.226 C-230.614 F19.49
X115.834 Y40.454 C-232.665 F19.55
X114.376 Y42.283 Z-2.999 B13.242 C-234.714 F19.65
X112.881 Y44.004 Z-2.996 B13.231 C-236.681 F20.32
X111.343 Y45.664 Z-2.997 B13.234 C-238.65 F20.39
X109.769 Y47.257 Z-3.001 B13.253 C-240.615 F20.5
X108.172 Y48.749 Z-2.998 B13.239 C-242.499 F21.21
X106.542 Y50.18 C-244.386 F21.27
X104.882 Y51.549 Z-3.001 B13.253 C-246.27 F21.36
X103.148 Y52.885 Z-2.998 B13.238 C-248.155 F21.19
X101.386 Y54.158 Z-2.997 B13.236 C-250.041 F21.24
X99.6 Y55.365 Z-3. B13.248 C-251.927 F21.34
X97.66 Y56.568 Z-2.997 B13.233 C-253.893 F20.32
X95.697 Y57.699 C-255.862 F20.37
X93.717 Y58.757 Z-3.001 B13.248 C-257.828 F20.47
X91.82 Y59.692 Z-2.998 B13.235 C-259.649 F21.93
X89.909 Y60.565 B13.236 C-261.472 F21.99
X87.989 Y61.373 Z-3.001 B13.249 C-263.293 F22.09
X85.76 Y62.169 Z-2.997 B13.233 C-265.34 F19.55
X83.521 Y62.884 Z-2.998 C-267.389 F19.6
X81.28 Y63.517 Z-3.002 B13.25 C-269.436 F19.7
X79.046 Y64.069 Z-3.01 B13.283 C-271.475 F19.84
X76.812 Y64.56 Z-3.004 B13.259 C-273.439 F20.3
X74.576 Y64.975 Z-3.001 B13.25 C-275.408 F20.34
X72.346 Y65.316 Z-3.002 B13.256 C-277.377 F20.41
X70.503 Y65.551 Z-2.999 B13.243 C-278.974 F24.98
X68.664 Y65.736 B13.241 C-280.573 F25.03
X66.835 Y65.873 Z-3. B13.248 C-282.172 F25.12
X64.554 Y65.936 Z-2.997 B13.233 C-284.138 F20.32
X62.289 Y65.925 C-286.107 F20.37
X60.045 Y65.842 Z-3. B13.248 C-288.073 F20.47
X57.77 Y65.67 Z-2.997 B13.233 C-290.04 F20.32
X55.518 Y65.425 C-292.009 F20.37
X53.296 Y65.111 Z-3. B13.248 C-293.975 F20.47
X51.05 Y64.706 Z-2.997 B13.233 C-295.942 F20.32
X48.834 Y64.232 C-297.91 F20.37
X46.655 Y63.692 Z-3. B13.248 C-299.877 F20.47
X44.464 Y63.058 Z-2.997 B13.233 C-301.843 F20.32
X42.309 Y62.358 C-303.812 F20.37
X40.198 Y61.596 Z-3. B13.248 C-305.778 F20.47
X38.083 Y60.74 Z-2.997 B13.233 C-307.745 F20.32
X36.011 Y59.823 C-309.714 F20.37
X33.988 Y58.849 Z-3. B13.248 C-311.68 F20.47
X31.973 Y57.78 Z-2.997 B13.233 C-313.646 F20.32
X30.007 Y56.653 C-315.615 F20.37
X28.096 Y55.476 Z-3. B13.248 C-317.582 F20.47
X26.201 Y54.206 Z-2.997 B13.233 C-319.548 F20.32
X24.36 Y52.884 C-321.517 F20.37
X22.58 Y51.517 Z-3. B13.248 C-323.483 F20.47
X20.826 Y50.058 Z-2.997 B13.233 C-325.45 F20.32
X19.132 Y48.553 C-327.418 F20.37
X17.502 Y47.01 Z-3. B13.248 C-329.385 F20.47
X15.907 Y45.379 Z-2.997 B13.233 C-331.351 F20.32
X14.376 Y43.709 C-333.32 F20.37
X12.913 Y42.006 Z-3. B13.248 C-335.287 F20.47
X11.494 Y40.219 Z-2.997 B13.233 C-337.253 F20.32
X10.144 Y38.4 C-339.222 F20.37
X8.864 Y36.556 Z-3. B13.248 C-341.188 F20.47
X7.636 Y34.633 Z-2.997 B13.233 C-343.155 F20.32
X6.479 Y32.685 C-345.123 F20.37
X5.395 Y30.719 Z-3. B13.248 C-347.09 F20.47
X4.372 Y28.68 Z-2.997 B13.233 C-349.056 F20.32
X3.422 Y26.623 C-351.025 F20.37
X2.547 Y24.556 Z-3. B13.248 C-352.991 F20.47
X1.739 Y22.422 Z-2.997 B13.233 C-354.958 F20.32
X1.004 Y20.279 C-356.927 F20.37
X0.345 Y18.133 Z-3. B13.248 C-358.893 F20.47
X0.007 Y16.893 Z-2.998 B13.239 C-360. F36.09
(REWIND: TOOL IS RETRACTING DUE TO ROTARY AXES LIMITS.)
G94 Y17.354 Z-1.042 F500.
G0 C0.
X0.007 Y17.354
Z-1.042
G1 Y16.893 Z-2.998 F250.
G93 X-0.239 Y15.927 Z-2.997 B13.233 C-0.86 F46.5
X-0.748 Y13.72 C-2.828 F20.37
X-1.182 Y11.518 Z-3. B13.248 C-4.795 F20.47
X-1.537 Y9.264 Z-2.997 B13.233 C-6.761 F20.32
X-1.817 Y7.015 C-8.73 F20.37
X-2.023 Y4.78 Z-3. B13.248 C-10.696 F20.47
X-2.144 Y2.502 Z-2.997 B13.233 C-12.663 F20.32
X-2.19 Y0.237 C-14.632 F20.37
X-2.165 Y-2.008 Z-3. B13.248 C-16.598 F20.47
X-2.063 Y-4.192 Z-2.998 B13.236 C-18.483 F21.19
X-1.896 Y-6.357 B13.238 C-20.37 F21.26
X-1.664 Y-8.496 Z-3.002 B13.253 C-22.254 F21.36
X-1.315 Y-10.749 Z-2.998 B13.236 C-24.22 F20.33
X-0.896 Y-12.973 Z-2.997 B13.234 C-26.188 F20.38
X-0.41 Y-15.164 Z-3. B13.248 C-28.155 F20.47
X0.149 Y-17.381 Z-2.996 B13.231 C-30.121 F20.3
X0.775 Y-19.564 B13.229 C-32.09 F20.35
X1.463 Y-21.707 Z-2.999 B13.242 C-34.058 F20.44
X2.255 Y-23.844 Z-2.996 B13.231 C-36.025 F20.32
X3.108 Y-25.94 Z-2.997 B13.234 C-37.994 F20.39
X4.019 Y-27.986 Z-3.001 B13.253 C-39.959 F20.49
X4.987 Y-29.945 Z-2.998 B13.239 C-41.844 F21.21
X6.008 Y-31.86 C-43.73 F21.27
X7.078 Y-33.726 Z-3.001 B13.253 C-45.614 F21.36
X8.285 Y-35.664 Z-2.997 B13.234 C-47.58 F20.31
X9.547 Y-37.55 Z-2.996 B13.231 C-49.548 F20.36
X10.857 Y-39.378 Z-2.999 B13.242 C-51.516 F20.45
X12.312 Y-41.261 Z-2.995 B13.226 C-53.565 F19.49
X13.818 Y-43.081 C-55.616 F19.55
X15.368 Y-44.833 Z-2.999 B13.242 C-57.664 F19.65
X16.95 Y-46.475 Z-2.996 B13.231 C-59.632 F20.32
X18.571 Y-48.053 Z-2.997 B13.234 C-61.6 F20.39
X20.225 Y-49.564 Z-3.001 B13.253 C-63.566 F20.5
X21.896 Y-50.971 Z-2.998 B13.239 C-65.45 F21.21
X22.871 Y-51.752 B13.238 C-66.534 F36.98
X23.598 Y-52.316 B13.239 C-67.337 F50.05
X25.326 Y-53.598 Z-3.001 B13.253 C-69.221 F21.36
X27.126 Y-54.843 Z-2.998 B13.238 C-71.105 F21.19
X28.952 Y-56.023 Z-2.997 B13.236 C-72.992 F21.24
X29.679 Y-56.471 Z-2.998 B13.239 C-73.737 F53.95
G94 X29.654 Y-56.529 Z-3. F100.
G93 X30.244 Y-56.985 Z-3.086 B13.583 C-74.68 F48.34
X30.807 Y-57.425 Z-3.182 B13.947 C-75.621 F48.86
X31.358 Y-57.859 Z-3.293 B14.346 C-76.587 F47.96
X31.854 Y-58.26 Z-3.406 B14.746 C-77.494 F51.21
X32.274 Y-58.614 Z-3.511 B15.112 C-78.28 F58.87
X32.649 Y-58.94 Z-3.61 B15.463 C-78.992 F64.43
X33.36 Y-59.508 Z-3.808 B16.179 C-80.341 F33.99
X34.572 Y-60.113 Z-3.811 B16.192 C-81.516 F33.44
X36.147 Y-60.843 Z-3.807 B16.177 C-82.991 F26.39
X37.73 Y-61.532 Z-3.806 B16.172 C-84.467 F26.44
X39.318 Y-62.179 Z-3.807 B16.177 C-85.943 F26.52
X40.908 Y-62.783 Z-3.812 B16.192 C-87.418 F26.64
X42.549 Y-63.347 Z-3.807 B16.177 C-88.892 F26.39
X44.195 Y-63.869 Z-3.806 B16.172 C-90.369 F26.45
X45.84 Y-64.348 Z-3.807 B16.177 C-91.845 F26.53
X47.483 Y-64.785 Z-3.811 B16.192 C-93.319 F26.64
X49.102 Y-65.166 Z-3.808 B16.18 C-94.733 F27.53
X50.72 Y-65.509 Z-3.807 B16.177 C-96.148 F27.59
X52.335 Y-65.813 Z-3.809 B16.183 C-97.563 F27.68
X53.943 Y-66.079 Z-3.813 B16.199 C-98.976 F27.8
X55.59 Y-66.29 Z-3.809 B16.185 C-100.389 F27.56
X57.233 Y-66.462 Z-3.808 B16.18 C-101.803 F27.61
X58.868 Y-66.596 Z-3.809 B16.185 C-103.218 F27.7
X60.494 Y-66.692 Z-3.813 B16.199 C-104.631 F27.81
X62.158 Y-66.748 Z-3.809 B16.183 C-106.044 F27.53
X63.813 Y-66.765 Z-3.807 B16.177 C-107.459 F27.58
X65.458 Y-66.745 Z-3.808 B16.18 C-108.874 F27.66
X67.09 Y-66.689 Z-3.812 B16.192 C-110.287 F27.77
X68.821 Y-66.571 Z-3.807 B16.177 C-111.762 F26.4
X70.539 Y-66.413 Z-3.806 B16.172 C-113.238 F26.45
X72.241 Y-66.216 Z-3.807 B16.177 C-114.714 F26.53
X73.924 Y-65.982 Z-3.811 B16.192 C-116.189 F26.65
X75.633 Y-65.686 Z-3.807 B16.177 C-117.663 F26.4
X77.325 Y-65.352 Z-3.806 B16.172 C-119.14 F26.45
X78.998 Y-64.981 Z-3.807 B16.177 C-120.616 F26.54
X80.647 Y-64.573 Z-3.812 B16.192 C-122.09 F26.65
X82.249 Y-64.129 Z-3.808 B16.179 C-123.504 F27.54
X83.831 Y-63.651 Z-3.807 B16.176 C-124.919 F27.6
X85.392 Y-63.141 Z-3.808 B16.181 C-126.333 F27.69
X86.929 Y-62.601 Z-3.812 B16.196 C-127.746 F27.8
X88.774 Y-61.907 C-129.428 F23.18
X90.584 Y-61.171 Z-3.814 B16.209 C-131.11 F23.28
X92.355 Y-60.396 Z-3.821 B16.235 C-132.787 F23.42
X93.91 Y-59.624 Z-3.817 B16.219 C-134.261 F26.38
X95.438 Y-58.821 Z-3.815 B16.214 C-135.738 F26.43
X96.937 Y-57.987 Z-3.817 B16.219 C-137.214 F26.52
X98.403 Y-57.126 Z-3.821 B16.235 C-138.689 F26.63
X99.871 Y-56.199 Z-3.817 B16.219 C-140.163 F26.38
X101.308 Y-55.243 Z-3.815 B16.214 C-141.639 F26.44
X102.713 Y-54.26 Z-3.817 B16.219 C-143.116 F26.52
X104.083 Y-53.253 Z-3.821 B16.235 C-144.59 F26.63
X105.448 Y-52.18 Z-3.817 B16.219 C-146.065 F26.39
X106.779 Y-51.081 Z-3.815 B16.214 C-147.541 F26.44
X108.074 Y-49.959 Z-3.817 B16.219 C-149.017 F26.52
X109.333 Y-48.816 Z-3.821 B16.235 C-150.492 F26.63
X110.58 Y-47.61 Z-3.817 B16.219 C-151.966 F26.39
X111.791 Y-46.38 Z-3.815 B16.214 C-153.443 F26.44
X112.965 Y-45.132 Z-3.817 B16.219 C-154.919 F26.52
X114.1 Y-43.866 Z-3.821 B16.235 C-156.393 F26.64
X115.393 Y-42.353 Z-3.814 B16.209 C-158.071 F23.11
X116.284 Y-41.262 Z-3.812 B16.198 C-159.266 F32.55
X116.638 Y-40.816 B16.196 C-159.752 F80.16
X117.833 Y-39.256 Z-3.813 C-161.434 F23.22
X118.79 Y-37.894 Z-3.809 B16.181 C-162.847 F27.53
X119.711 Y-36.517 Z-3.807 B16.176 C-164.262 F27.58
X120.595 Y-35.129 Z-3.808 B16.179 C-165.676 F27.66
X121.441 Y-33.733 Z-3.811 B16.192 C-167.09 F27.77
X122.291 Y-32.218 Z-3.807 B16.177 C-168.564 F26.39
X123.1 Y-30.693 Z-3.806 B16.172 C-170.041 F26.44
